;FLAVOR:Marlin
;TIME:350
;Filament used: 0.149805m
;Layer height: 0.2
;MINX:4.537
;MINY:9.424
;MINZ:0.2
;MAXX:30.135
;MAXY:25.883
;MAXZ:4
;TARGET_MACHINE.NAME:Creality Ender-3
;Generated with Cura_SteamEngine 5.7.0
M140 S50
M105
M190 S50
M104 S200
M105
M109 S200
M82 ;absolute extrusion mode
; Ender 3 Custom Start G-code
G92 E0 ; Reset Extruder
G28 ; Home all axes
G1 Z2.0 F3000 ; Move Z Axis up little to prevent scratching of Heat Bed
G1 X0.1 Y20 Z0.3 F5000.0 ; Move to start position
G1 X0.1 Y200.0 Z0.3 F1500.0 E15 ; Draw the first line
G1 X0.4 Y200.0 Z0.3 F5000.0 ; Move to side a little
G1 X0.4 Y20 Z0.3 F1500.0 E30 ; Draw the second line
G92 E0 ; Reset Extruder
G1 Z2.0 F3000 ; Move Z Axis up little to prevent scratching of Heat Bed
G1 X5 Y20 Z0.3 F5000.0 ; Move over to prevent blob squish
G92 E0
G92 E0
G1 F2700 E-5
;LAYER_COUNT:20
;LAYER:0
M107
;MESH:AbstandPlatte1.stl(1)
G0 F6000 X9.274 Y12.741 Z0.2
;TYPE:WALL-INNER
G1 F2700 E0
G1 F1134.8 X9.304 Y13.125 E0.01355
G1 X9.243 Y13.604 E0.03053
G1 X9.056 Y14.041 E0.04725
G1 F1140.1 X8.769 Y14.446 E0.06463
G1 X8.419 Y14.724 E0.08027
G1 F1134.8 X8.077 Y14.904 E0.09387
G1 F1126.8 X7.771 Y15.002 E0.10525
G1 F1129.4 X7.41 Y15.046 E0.1181
G1 F1134.8 X7 Y15.018 E0.13255
G1 F1137.4 X6.558 Y14.899 E0.14862
G1 F1134.8 X6.149 Y14.646 E0.16553
G1 F1129.4 X5.843 Y14.363 E0.18026
G1 F1132.1 X5.575 Y13.977 E0.19683
G1 X5.427 Y13.543 E0.21299
G1 F1126.8 X5.377 Y13.173 E0.22622
G1 X5.397 Y12.781 E0.24012
G1 X5.483 Y12.454 E0.2521
G1 F1129.4 X5.633 Y12.102 E0.26562
G1 F1132.1 X5.916 Y11.734 E0.28199
G1 F1134.8 X6.189 Y11.499 E0.29466
G1 F1137.4 X6.55 Y11.285 E0.30938
G1 F1124.1 X6.838 Y11.193 E0.32012
G1 F1126.8 X7.149 Y11.128 E0.33137
G1 F1142.9 X7.579 Y11.133 E0.34639
G1 X8.1 Y11.266 E0.36517
G1 F1140.1 X8.478 Y11.49 E0.38055
G1 F1134.8 X8.771 Y11.74 E0.3941
G1 F1132.1 X8.965 Y11.988 E0.4052
G1 F1134.8 X9.169 Y12.383 E0.42083
G1 F1137.4 X9.274 Y12.741 E0.43393
G0 F6000 X9.716 Y13.272
G1 F1126.8 X9.721 Y12.986 E0.44406
G1 F1129.4 X9.688 Y12.662 E0.45557
G1 F1126.8 X9.615 Y12.375 E0.46606
G1 F1121.5 X9.467 Y12.002 E0.48034
G1 X9.274 Y11.689 E0.49342
G1 F1126.8 X9.065 Y11.437 E0.50502
G1 F1129.4 X8.846 Y11.238 E0.51548
G1 F1126.8 X8.588 Y11.054 E0.5267
G1 F1132.1 X8.317 Y10.906 E0.53759
G1 F1126.8 X7.953 Y10.777 E0.55127
G1 F1116.3 X7.495 Y10.702 E0.56786
G1 F1129.4 X7.111 Y10.71 E0.58144
G1 F1126.8 X6.732 Y10.775 E0.59506
G1 F1124.1 X6.368 Y10.903 E0.60876
G1 F1129.4 X6.1 Y11.051 E0.61958
G1 F1124.1 X5.841 Y11.232 E0.63079
G1 F1129.4 X5.615 Y11.437 E0.64158
G1 X5.418 Y11.673 E0.65244
G1 F1121.5 X5.211 Y11.999 E0.66618
G1 F1116.3 X5.039 Y12.436 E0.68298
G1 F1121.5 X4.97 Y12.819 E0.69683
G1 F1126.8 X4.952 Y13.199 E0.7103
G1 X5.015 Y13.648 E0.72636
G1 F1134.8 X5.152 Y14.037 E0.74087
G1 X5.281 Y14.297 E0.75108
G1 F1129.4 X5.455 Y14.549 E0.7619
G1 F1126.8 X5.674 Y14.793 E0.77351
G1 X5.9 Y14.99 E0.78413
G1 X6.156 Y15.158 E0.79498
G1 F1124.1 X6.504 Y15.326 E0.8087
G1 F1129.4 X6.861 Y15.423 E0.82177
G1 X7.19 Y15.467 E0.8335
G1 F1126.8 X7.487 Y15.467 E0.84402
G1 X7.875 Y15.416 E0.85788
G1 X8.233 Y15.299 E0.87122
G1 X8.52 Y15.158 E0.88255
G1 F1124.1 X8.778 Y14.989 E0.8935
G1 F1132.1 X9.013 Y14.787 E0.90443
G1 F1134.8 X9.217 Y14.557 E0.91524
G1 F1129.4 X9.398 Y14.29 E0.92664
G1 F1126.8 X9.531 Y14.02 E0.9373
G1 F1129.4 X9.663 Y13.659 E0.95088
G1 X9.716 Y13.272 E0.96469
G0 F6000 X10.128 Y13.319
;TYPE:WALL-OUTER
G1 F1200 X10.135 Y12.954 E0.97683
G1 X10.094 Y12.588 E0.98908
G1 X10.009 Y12.249 E1.0007
G1 X9.84 Y11.815 E1.01619
G1 X9.609 Y11.446 E1.03067
G1 X9.363 Y11.151 E1.04345
G1 X9.106 Y10.916 E1.05503
G1 X8.806 Y10.703 E1.06727
G1 X8.485 Y10.531 E1.07938
G1 X8.06 Y10.374 E1.09445
G1 X7.522 Y10.285 E1.11259
G1 X7.072 Y10.3 E1.12756
G1 X6.627 Y10.371 E1.14255
G1 X6.199 Y10.527 E1.1577
G1 X5.882 Y10.699 E1.1697
G1 X5.582 Y10.909 E1.18188
G1 X5.317 Y11.151 E1.19381
G1 X5.086 Y11.427 E1.20579
G1 X4.84 Y11.808 E1.22087
G1 X4.638 Y12.323 E1.23927
G1 X4.56 Y12.759 E1.254
G1 X4.537 Y13.218 E1.26929
G1 X4.612 Y13.747 E1.28706
G1 X4.773 Y14.197 E1.30295
G1 X4.925 Y14.506 E1.31441
G1 X5.13 Y14.804 E1.32644
G1 X5.373 Y15.078 E1.33862
G1 X5.65 Y15.32 E1.35085
G1 X5.951 Y15.517 E1.36282
G1 X6.359 Y15.715 E1.3779
G1 X6.78 Y15.827 E1.39239
G1 X7.162 Y15.88 E1.40522
G1 X7.514 Y15.88 E1.41692
G1 X7.967 Y15.82 E1.43212
G1 X8.388 Y15.682 E1.44686
G1 X8.725 Y15.517 E1.45934
G1 X9.027 Y15.319 E1.47135
G1 X9.303 Y15.081 E1.48347
G1 X9.542 Y14.812 E1.49544
G1 X9.747 Y14.513 E1.5075
G1 X9.907 Y14.196 E1.51931
G1 X10.064 Y13.759 E1.53475
G1 X10.128 Y13.319 E1.54954
G1 F2700 E-3.45046
G0 F6000 X9.433 Y13.263
G0 X5.478 Y11.833
G0 X6.031 Y12.256
G1 F2700 E1.54954
G1 F1200 X6.19 Y12.043 E1.55838
G1 X6.438 Y11.827 E1.56932
G1 X6.755 Y11.644 E1.58149
G1 X7.172 Y11.538 E1.5958
G1 X7.546 Y11.551 E1.60825
G1 X7.921 Y11.64 E1.62107
G1 X8.226 Y11.815 E1.63276
G1 X8.47 Y12.026 E1.64349
G1 X8.65 Y12.257 E1.65323
G1 X8.787 Y12.531 E1.66342
G1 X8.865 Y12.815 E1.67322
G1 X8.889 Y13.117 E1.68329
G1 X8.845 Y13.484 E1.69559
G1 X8.699 Y13.827 E1.70799
G1 X8.486 Y14.141 E1.72061
G1 X8.194 Y14.38 E1.73316
G1 X7.95 Y14.51 E1.74235
G1 X7.659 Y14.605 E1.75253
G1 X7.371 Y14.636 E1.76217
G1 X7.056 Y14.611 E1.77268
G1 X6.689 Y14.504 E1.78539
G1 X6.357 Y14.285 E1.79862
G1 X6.162 Y14.098 E1.80761
G1 X5.944 Y13.781 E1.8204
G1 X5.826 Y13.436 E1.83253
G1 X5.788 Y13.14 E1.84246
G1 X5.814 Y12.816 E1.85327
G1 X5.896 Y12.523 E1.86339
G1 X6.031 Y12.256 E1.87334
G1 F2700 E-3.12666
;MESH:AbstandPlatte1.stl
G0 F6000 X5.478 Y11.833
G0 X5.777 Y11.598
G0 X5.991 Y11.403
G0 X6.212 Y11.247
G0 X6.46 Y11.116
G0 X6.792 Y10.994
G0 X7.131 Y10.939
G0 X7.489 Y10.927
G0 X7.899 Y10.995
G0 X8.225 Y11.117
G0 X8.47 Y11.248
G0 X8.7 Y11.411
G0 X8.907 Y11.601
G0 X9.083 Y11.813
G0 X9.275 Y12.116
G0 X9.8 Y12.309
G0 X10.851 Y12.048
G0 X13.851 Y11.982
G0 X14.898 Y12.26
G0 X15.441 Y11.972
G0 X15.801 Y11.575
G0 X16.017 Y11.383
G0 X16.244 Y11.229
G0 X16.493 Y11.103
G0 X16.825 Y10.986
G0 X17.171 Y10.936
G0 X17.526 Y10.93
G0 X17.663 Y11.135
;TYPE:WALL-INNER
G1 F2700 E1.87334
G1 F1140.1 X18.139 Y11.283 E1.89079
G1 F1134.8 X18.481 Y11.491 E1.90487
G1 F1129.4 X18.791 Y11.754 E1.91923
G1 F1132.1 X19.084 Y12.156 E1.93677
G1 F1140.1 X19.25 Y12.613 E1.95379
G1 F1137.4 X19.301 Y13.033 E1.96864
G1 F1129.4 X19.286 Y13.356 E1.98006
G1 F1140.1 X19.236 Y13.635 E1.98999
G1 F1151.1 X19.01 Y14.145 E2.00933
G1 F1145.6 X18.684 Y14.518 E2.02659
G1 F1137.4 X18.397 Y14.74 E2.03932
G1 X18.048 Y14.918 E2.05307
G1 X17.641 Y15.025 E2.06783
G1 F1134.8 X17.303 Y15.047 E2.07975
G1 X16.859 Y14.996 E2.09547
G1 F1129.4 X16.427 Y14.832 E2.1118
G1 F1132.1 X16.069 Y14.58 E2.12723
G1 F1140.1 X15.79 Y14.297 E2.14114
G1 F1142.9 X15.559 Y13.932 E2.15623
G1 F1137.4 X15.415 Y13.474 E2.17307
G1 F1134.8 X15.365 Y13.03 E2.18879
G1 F1137.4 X15.447 Y12.554 E2.20574
G1 F1140.1 X15.662 Y12.015 E2.22605
G1 X16.053 Y11.604 E2.24591
G1 F1134.8 X16.351 Y11.391 E2.25879
G1 F1137.4 X16.831 Y11.178 E2.27722
G1 X17.224 Y11.128 E2.29112
G1 F1134.8 X17.663 Y11.135 E2.30657
G0 F6000 X17.681 Y10.863
G0 X19.44 Y13.019
G0 X19.726 Y13.011
G1 F1129.4 X19.695 Y12.717 E2.31701
G1 X19.619 Y12.389 E2.32891
G1 F1132.1 X19.519 Y12.113 E2.33926
G1 F1134.8 X19.38 Y11.849 E2.34975
G1 X19.193 Y11.588 E2.36105
G1 F1129.4 X18.99 Y11.364 E2.37173
G1 F1124.1 X18.693 Y11.118 E2.38542
G1 F1134.8 X18.351 Y10.924 E2.39925
G1 F1132.1 X17.988 Y10.786 E2.41294
G1 F1118.9 X17.548 Y10.704 E2.42891
G1 F1126.8 X17.195 Y10.706 E2.44141
G1 F1134.8 X16.779 Y10.761 E2.45617
G1 F1129.4 X16.393 Y10.897 E2.47064
G1 X16.131 Y11.029 E2.481
G1 F1132.1 X15.877 Y11.201 E2.49182
G1 F1129.4 X15.646 Y11.408 E2.50278
G1 F1137.4 X15.385 Y11.702 E2.51657
G1 F1142.9 X15.204 Y12.028 E2.5296
G1 F1134.8 X15.069 Y12.359 E2.54217
G1 F1126.8 X15.005 Y12.605 E2.55117
G1 F1132.1 X14.958 Y12.935 E2.56293
G1 F1134.8 X14.961 Y13.238 E2.57358
G1 F1129.4 X15.003 Y13.569 E2.58537
G1 F1126.8 X15.075 Y13.836 E2.59517
G1 F1132.1 X15.194 Y14.135 E2.60652
G1 F1129.4 X15.386 Y14.461 E2.61989
G1 F1118.9 X15.631 Y14.752 E2.63345
G1 F1124.1 X15.876 Y14.969 E2.64508
G1 F1126.8 X16.124 Y15.14 E2.65575
G1 F1124.1 X16.404 Y15.279 E2.66684
G1 F1126.8 X16.765 Y15.411 E2.68046
G1 X17.152 Y15.464 E2.6943
G1 F1124.1 X17.451 Y15.47 E2.70491
G1 F1126.8 X17.762 Y15.436 E2.716
G1 X18.053 Y15.363 E2.72662
G1 X18.349 Y15.246 E2.7379
G1 F1129.4 X18.628 Y15.097 E2.74908
G1 F1126.8 X18.86 Y14.926 E2.75928
G1 X19.101 Y14.693 E2.77116
G1 F1134.8 X19.34 Y14.405 E2.78432
G1 X19.515 Y14.061 E2.7979
G1 F1140.1 X19.628 Y13.77 E2.80882
G1 X19.712 Y13.394 E2.82231
G1 F1126.8 X19.726 Y13.011 E2.83589
G0 F6000 X19.44 Y13.019
G0 X19.259 Y12.233
G0 X19.896 Y11.946
;TYPE:WALL-OUTER
G1 F1200 X19.729 Y11.631 E2.84775
G1 X19.515 Y11.33 E2.86003
G1 X19.277 Y11.065 E2.87188
G1 X18.926 Y10.775 E2.88702
G1 X18.526 Y10.554 E2.90222
G1 X18.104 Y10.386 E2.91733
G1 X17.583 Y10.289 E2.93495
G1 X17.116 Y10.296 E2.95049
G1 X16.68 Y10.36 E2.96514
G1 X16.231 Y10.517 E2.98096
G1 X15.922 Y10.673 E2.99248
G1 X15.624 Y10.875 E3.00445
G1 X15.351 Y11.117 E3.01658
G1 X15.049 Y11.464 E3.03189
G1 X14.833 Y11.848 E3.04654
G1 X14.682 Y12.213 E3.05968
G1 X14.597 Y12.524 E3.0704
G1 X14.548 Y12.909 E3.08331
G1 X14.548 Y13.263 E3.09508
G1 X14.594 Y13.633 E3.10748
G1 X14.682 Y13.968 E3.119
G1 X14.825 Y14.316 E3.13152
G1 X15.045 Y14.7 E3.14624
G1 X15.335 Y15.043 E3.16118
G1 X15.612 Y15.286 E3.17343
G1 X15.912 Y15.496 E3.18561
G1 X16.228 Y15.655 E3.19738
G1 X16.665 Y15.813 E3.21283
G1 X17.105 Y15.876 E3.22762
G1 X17.47 Y15.883 E3.23976
G1 X17.836 Y15.842 E3.25201
G1 X18.179 Y15.757 E3.26376
G1 X18.523 Y15.622 E3.27605
G1 X18.848 Y15.446 E3.28835
G1 X19.127 Y15.242 E3.29984
G1 X19.397 Y14.983 E3.31228
G1 X19.684 Y14.632 E3.32736
G1 X19.888 Y14.242 E3.342
G1 X20.02 Y13.889 E3.35454
G1 X20.124 Y13.449 E3.36958
G1 X20.139 Y12.996 E3.38465
G1 X20.102 Y12.649 E3.39626
G1 X20.019 Y12.285 E3.40868
G1 X19.896 Y11.946 E3.42067
G1 F2700 E-1.57933
G0 F6000 X19.259 Y12.233
G0 X19.175 Y14.399
G0 X18.65 Y13.938
G1 F2700 E3.42067
G1 F1200 X18.399 Y14.221 E3.43325
G1 X18.171 Y14.396 E3.44281
G1 X17.898 Y14.535 E3.453
G1 X17.625 Y14.61 E3.46242
G1 X17.332 Y14.636 E3.4722
G1 X16.916 Y14.585 E3.48614
G1 X16.601 Y14.447 E3.49758
G1 X16.34 Y14.271 E3.50805
G1 X16.139 Y14.066 E3.5176
G1 X15.934 Y13.757 E3.52993
G1 X15.819 Y13.392 E3.54266
G1 X15.784 Y13.008 E3.55548
G1 X15.862 Y12.625 E3.56848
G1 X16.017 Y12.241 E3.58226
G1 X16.326 Y11.91 E3.59732
G1 X16.589 Y11.729 E3.60794
G1 X16.943 Y11.579 E3.62072
G1 X17.313 Y11.536 E3.63311
G1 X17.593 Y11.554 E3.64244
G1 X17.955 Y11.653 E3.65493
G1 X18.284 Y11.857 E3.6678
G1 X18.484 Y12.04 E3.67682
G1 X18.717 Y12.354 E3.68982
G1 X18.851 Y12.728 E3.70304
G1 X18.889 Y13.019 E3.7128
G1 X18.864 Y13.459 E3.72746
G1 X18.65 Y13.938 E3.74491
G1 F2700 E-1.25509
;MESH:AbstandPlatte1.stl(2)
G0 F6000 X19.175 Y14.399
G0 X18.12 Y15.547
G0 X18.381 Y16.598
G0 X18.246 Y19.533
G0 X18.05 Y20.6
G0 X18.532 Y21.352
G0 X18.693 Y21.118
;TYPE:WALL-INNER
G1 F2700 E3.74491
G1 F1134.8 X18.351 Y20.924 E3.75874
G1 F1132.1 X17.988 Y20.786 E3.77243
G1 F1118.9 X17.548 Y20.704 E3.78839
G1 F1126.8 X17.195 Y20.706 E3.8009
G1 F1134.8 X16.779 Y20.761 E3.81566
G1 F1129.4 X16.393 Y20.897 E3.83012
G1 X16.131 Y21.029 E3.84049
G1 F1132.1 X15.877 Y21.201 E3.8513
G1 F1129.4 X15.646 Y21.408 E3.86226
G1 F1137.4 X15.385 Y21.702 E3.87606
G1 F1142.9 X15.204 Y22.028 E3.88908
G1 F1134.8 X15.069 Y22.359 E3.90165
G1 F1126.8 X15.005 Y22.605 E3.91066
G1 F1132.1 X14.958 Y22.935 E3.92241
G1 F1134.8 X14.961 Y23.238 E3.93307
G1 F1129.4 X15.003 Y23.569 E3.94486
G1 F1126.8 X15.075 Y23.836 E3.95465
G1 F1132.1 X15.194 Y24.135 E3.966
G1 F1129.4 X15.386 Y24.461 E3.97937
G1 F1118.9 X15.631 Y24.752 E3.99294
G1 F1124.1 X15.876 Y24.969 E4.00456
G1 F1126.8 X16.124 Y25.14 E4.01523
G1 F1124.1 X16.404 Y25.279 E4.02633
G1 F1126.8 X16.765 Y25.411 E4.03994
G1 X17.152 Y25.464 E4.05378
G1 F1124.1 X17.451 Y25.47 E4.0644
G1 F1126.8 X17.762 Y25.436 E4.07548
G1 X18.053 Y25.363 E4.08611
G1 X18.349 Y25.246 E4.09738
G1 F1129.4 X18.628 Y25.097 E4.10856
G1 F1126.8 X18.86 Y24.926 E4.11877
G1 X19.101 Y24.693 E4.13064
G1 F1134.8 X19.34 Y24.405 E4.1438
G1 X19.515 Y24.061 E4.15738
G1 F1140.1 X19.628 Y23.77 E4.16831
G1 X19.712 Y23.394 E4.18179
G1 F1126.8 X19.726 Y23.011 E4.19537
G1 F1129.4 X19.695 Y22.717 E4.20582
G1 X19.619 Y22.389 E4.21772
G1 F1132.1 X19.519 Y22.113 E4.22807
G1 F1134.8 X19.38 Y21.849 E4.23856
G1 X19.193 Y21.588 E4.24985
G1 F1129.4 X18.99 Y21.364 E4.26054
G1 F1124.1 X18.693 Y21.118 E4.27423
G0 F6000 X18.481 Y21.491
G1 F1129.4 X18.791 Y21.754 E4.28859
G1 F1132.1 X19.084 Y22.156 E4.30613
G1 F1140.1 X19.25 Y22.613 E4.32315
G1 F1137.4 X19.301 Y23.033 E4.338
G1 F1129.4 X19.286 Y23.356 E4.34943
G1 F1140.1 X19.236 Y23.635 E4.35935
G1 F1151.1 X19.01 Y24.145 E4.37869
G1 F1145.6 X18.684 Y24.518 E4.39595
G1 F1137.4 X18.397 Y24.74 E4.40868
G1 X18.048 Y24.918 E4.42243
G1 X17.641 Y25.025 E4.43719
G1 F1134.8 X17.303 Y25.047 E4.44911
G1 X16.859 Y24.996 E4.46483
G1 F1129.4 X16.427 Y24.832 E4.48116
G1 F1132.1 X16.069 Y24.58 E4.49659
G1 F1140.1 X15.79 Y24.297 E4.5105
G1 F1142.9 X15.559 Y23.932 E4.52559
G1 F1137.4 X15.415 Y23.474 E4.54244
G1 F1134.8 X15.365 Y23.03 E4.55815
G1 F1137.4 X15.447 Y22.554 E4.5751
G1 F1140.1 X15.662 Y22.015 E4.59541
G1 X16.053 Y21.604 E4.61527
G1 F1134.8 X16.351 Y21.391 E4.62815
G1 F1137.4 X16.831 Y21.178 E4.64658
G1 X17.224 Y21.128 E4.66048
G1 F1134.8 X17.663 Y21.135 E4.67593
G1 F1140.1 X18.139 Y21.283 E4.69338
G1 F1134.8 X18.481 Y21.491 E4.70745
G1 F2700 E-0.29255
G0 F6000 X18.632 Y21.247
G0 X18.259 Y21.134
G0 X17.934 Y21.006
G0 X17.526 Y20.93
G0 X17.171 Y20.936
G0 X16.825 Y20.986
G0 X16.493 Y21.103
G0 X16.244 Y21.229
G0 X16.017 Y21.383
G0 X15.801 Y21.575
G0 X15.575 Y21.837
G0 X15.405 Y22.134
G0 X15.295 Y22.4
G0 X15.224 Y22.669
G0 X15.187 Y22.943
G0 X15.187 Y23.232
G0 X15.222 Y23.499
G0 X15.294 Y23.772
G0 X15.398 Y24.028
G0 X15.572 Y24.333
G0 X16.139 Y24.066
;TYPE:WALL-OUTER
G1 F2700 E4.70745
G1 F1200 X15.934 Y23.757 E4.71979
G1 X15.819 Y23.392 E4.73252
G1 X15.784 Y23.028 E4.74468
G1 X15.862 Y22.625 E4.75833
G1 X16.017 Y22.241 E4.7721
G1 X16.326 Y21.91 E4.78717
G1 X16.589 Y21.729 E4.79778
G1 X16.943 Y21.579 E4.81057
G1 X17.313 Y21.536 E4.82296
G1 X17.593 Y21.554 E4.83229
G1 X17.955 Y21.653 E4.84478
G1 X18.284 Y21.857 E4.85765
G1 X18.484 Y22.04 E4.86667
G1 X18.717 Y22.354 E4.87967
G1 X18.851 Y22.728 E4.89289
G1 X18.889 Y23.019 E4.90265
G1 X18.864 Y23.459 E4.9173
G1 X18.65 Y23.938 E4.93475
G1 X18.399 Y24.221 E4.94734
G1 X18.171 Y24.396 E4.95689
G1 X17.898 Y24.535 E4.96708
G1 X17.625 Y24.61 E4.9765
G1 X17.332 Y24.636 E4.98628
G1 X16.916 Y24.585 E5.00022
G1 X16.601 Y24.447 E5.01166
G1 X16.34 Y24.271 E5.02213
G1 X16.139 Y24.066 E5.03168
G1 F2700 E0.03168
G0 F6000 X15.64 Y24.559
G0 X17.973 Y25.089
G0 X18.179 Y25.757
G1 F2700 E5.03168
G1 F1200 X18.523 Y25.622 E5.04397
G1 X18.848 Y25.446 E5.05626
G1 X19.127 Y25.242 E5.06776
G1 X19.397 Y24.983 E5.0802
G1 X19.684 Y24.632 E5.09528
G1 X19.888 Y24.242 E5.10992
G1 X20.02 Y23.889 E5.12246
G1 X20.124 Y23.449 E5.1375
G1 X20.139 Y22.996 E5.15257
G1 X20.102 Y22.649 E5.16418
G1 X20.019 Y22.285 E5.17659
G1 X19.896 Y21.946 E5.18859
G1 X19.729 Y21.631 E5.20045
G1 X19.515 Y21.33 E5.21273
G1 X19.277 Y21.065 E5.22458
G1 X18.926 Y20.775 E5.23972
G1 X18.526 Y20.554 E5.25492
G1 X18.104 Y20.386 E5.27003
G1 X17.583 Y20.289 E5.28765
G1 X17.116 Y20.296 E5.30319
G1 X16.68 Y20.36 E5.31785
G1 X16.231 Y20.517 E5.33367
G1 X15.922 Y20.673 E5.34518
G1 X15.624 Y20.875 E5.35715
G1 X15.351 Y21.117 E5.36929
G1 X15.049 Y21.464 E5.38459
G1 X14.833 Y21.848 E5.39924
G1 X14.682 Y22.213 E5.41238
G1 X14.597 Y22.524 E5.4231
G1 X14.548 Y22.909 E5.43601
G1 X14.548 Y23.263 E5.44778
G1 X14.594 Y23.633 E5.46019
G1 X14.682 Y23.968 E5.47171
G1 X14.825 Y24.316 E5.48422
G1 X15.045 Y24.7 E5.49894
G1 X15.335 Y25.043 E5.51388
G1 X15.612 Y25.286 E5.52613
G1 X15.912 Y25.496 E5.53831
G1 X16.228 Y25.655 E5.55008
G1 X16.665 Y25.813 E5.56553
G1 X17.105 Y25.876 E5.58032
G1 X17.47 Y25.883 E5.59246
G1 X17.836 Y25.842 E5.60471
G1 X18.179 Y25.757 E5.61646
G1 F2700 E0.61646
;MESH:AbstandPlatte1.stl(3)
G0 F6000 X17.973 Y25.089
