;FLAVOR:Marlin
;TIME:16788
;Filament used: 14.5697m
;Layer height: 0.2
;MINX:8.516
;MINY:19.107
;MINZ:0.2
;MAXX:177.032
;MAXY:120.239
;MAXZ:13
;TARGET_MACHINE.NAME:Creality Ender-3
;Generated with Cura_SteamEngine 5.7.0
M140 S50
M105
M190 S50
M104 S200
M105
M109 S200
M82 ;absolute extrusion mode
; Ender 3 Custom Start G-code
G92 E0 ; Reset Extruder
G28 ; Home all axes
G1 Z2.0 F3000 ; Move Z Axis up little to prevent scratching of Heat Bed
G1 X0.1 Y20 Z0.3 F5000.0 ; Move to start position
G1 X0.1 Y200.0 Z0.3 F1500.0 E15 ; Draw the first line
G1 X0.4 Y200.0 Z0.3 F5000.0 ; Move to side a little
G1 X0.4 Y20 Z0.3 F1500.0 E30 ; Draw the second line
G92 E0 ; Reset Extruder
G1 Z2.0 F3000 ; Move Z Axis up little to prevent scratching of Heat Bed
G1 X5 Y20 Z0.3 F5000.0 ; Move over to prevent blob squish
G92 E0
G92 E0
G1 F2700 E-5
;LAYER_COUNT:65
;LAYER:0
M107
;MESH:Geh??use.stl
G0 F6000 X78.395 Y43.825 Z0.2
;TYPE:WALL-INNER
G1 F2700 E0
G1 F1200 X79.333 Y43.821 E0.0312
G1 X79.791 Y44.014 E0.04773
G1 X80.053 Y44.219 E0.05879
G1 X80.314 Y44.547 E0.07274
G1 X80.464 Y45.132 E0.09282
G1 X80.472 Y94.112 E1.7219
G1 X80.432 Y94.462 E1.73362
G1 X80.286 Y94.817 E1.74639
G1 X80.056 Y95.105 E1.75865
G1 X79.79 Y95.319 E1.77
G1 X79.336 Y95.507 E1.78634
G1 X78.405 Y95.511 E1.81731
G1 X77.96 Y95.323 E1.83338
G1 X77.689 Y95.111 E1.84482
G1 X77.46 Y94.825 E1.85701
G1 X77.307 Y94.46 E1.87017
G1 X77.272 Y94.277 E1.87637
G1 X77.274 Y44.95 E3.51699
G1 X77.465 Y44.51 E3.53294
G1 X77.677 Y44.224 E3.54478
G1 X77.97 Y44.009 E3.55687
G1 X78.395 Y43.825 E3.57228
G0 F6000 X78.283 Y43.551
G0 X79.373 Y43.583
G0 X79.896 Y43.796
G0 X80.235 Y44.059
G0 X80.402 Y44.276
G0 X80.85 Y45.08
G1 F1259.8 X80.853 Y94.256 E5.13018
G0 F6000 X81.217 Y94.934
G0 X81.478 Y95.277
G0 X81.821 Y95.538
G0 X82.337 Y95.751
G0 X83.355 Y95.75
G0 X83.865 Y95.538
G0 X84.208 Y95.277
G0 X84.994 Y94.458
G0 X85.189 Y94.934
G0 X85.45 Y95.277
G0 X85.793 Y95.538
G0 X86.309 Y95.751
G0 X87.327 Y95.75
G0 X87.839 Y95.537
G0 X89.047 Y94.656
G0 X89.16 Y94.934
G0 X89.421 Y95.277
G0 X89.764 Y95.538
G0 X90.28 Y95.751
G0 X91.298 Y95.75
G0 X91.808 Y95.538
G0 X92.151 Y95.277
G0 X92.457 Y94.823
G0 X93.733 Y95.538
G0 X94.251 Y95.751
G0 X95.269 Y95.75
G0 X95.779 Y95.538
G0 X96.743 Y94.958
G0 X97.707 Y95.538
G0 X98.223 Y95.751
G0 X99.241 Y95.75
G0 X100.545 Y95.218
G0 X100.712 Y94.96
G0 X101.677 Y95.538
G0 X102.194 Y95.751
G0 X103.11 Y95.75
G0 X104.161 Y95.394
G1 F1200 X103.833 Y95.66 E5.14423
G1 X103.364 Y95.856 E5.16114
G1 X103.113 Y95.906 E5.16965
G1 X102.291 Y95.91 E5.19699
G1 X102.043 Y95.867 E5.20536
G1 X101.567 Y95.659 E5.22264
G1 X101.235 Y95.394 E5.23677
G1 X101.015 Y95.128 E5.24825
G1 F1209.1 X100.86 Y94.862 E5.25841
G1 F1215.2 X100.727 Y94.323 E5.27664
G1 F1209.1 X100.651 Y94.636 E5.28728
G1 F1200 X100.544 Y94.896 E5.29663
G1 X100.409 Y95.128 E5.30556
G1 X100.189 Y95.394 E5.31704
G1 X99.861 Y95.66 E5.33108
G1 X99.392 Y95.856 E5.34799
G1 X99.141 Y95.906 E5.3565
G1 X98.319 Y95.91 E5.38384
G1 X98.071 Y95.867 E5.39221
G1 X97.595 Y95.659 E5.40949
G1 X97.263 Y95.394 E5.42362
G1 F1203 X96.965 Y95.019 E5.43951
G1 F1209.1 X96.81 Y94.65 E5.45272
G1 F1237.1 X96.742 Y94.34 E5.46296
G1 F1243.5 X96.721 Y94.523 E5.46887
G1 F1218.3 X96.525 Y95.018 E5.48632
G1 F1206 X96.217 Y95.394 E5.5024
G1 F1200 X95.889 Y95.66 E5.51645
G1 X95.42 Y95.856 E5.53335
G1 X95.169 Y95.906 E5.54187
G1 X94.347 Y95.91 E5.56921
G1 X94.099 Y95.867 E5.57758
G1 X93.619 Y95.657 E5.595
G1 X93.296 Y95.395 E5.60884
G1 X93.064 Y95.115 E5.62093
G1 X92.937 Y94.896 E5.62935
G1 F1206 X92.833 Y94.637 E5.63859
G1 F1237.1 X92.77 Y94.34 E5.64838
G1 F1243.5 X92.749 Y94.529 E5.65449
G1 F1212.1 X92.6 Y94.896 E5.66753
G1 F1200 X92.474 Y95.116 E5.67596
G1 X92.248 Y95.395 E5.6879
G1 X91.914 Y95.661 E5.7021
G1 X91.448 Y95.856 E5.71891
G1 X91.197 Y95.906 E5.72742
G1 X90.379 Y95.91 E5.75462
G1 X90.164 Y95.873 E5.76188
G1 X89.651 Y95.661 E5.78034
G1 X89.32 Y95.391 E5.79455
G1 X89.025 Y95.027 E5.81013
G1 F1209.1 X88.81 Y94.521 E5.82828
G1 F1237.1 X88.793 Y94.256 E5.83685
G1 F1227.6 X88.723 Y94.7 E5.85146
G1 F1200 X88.341 Y95.342 E5.87631
G1 X87.942 Y95.662 E5.89332
G1 X87.476 Y95.856 E5.91011
G1 X87.225 Y95.906 E5.91862
G1 X86.407 Y95.91 E5.94583
G1 X86.159 Y95.867 E5.9542
G1 X85.683 Y95.659 E5.97148
G1 X85.353 Y95.396 E5.98551
G1 X85.124 Y95.114 E5.9976
G1 X84.997 Y94.896 E6.00599
G1 F1206 X84.893 Y94.637 E6.01522
G1 F1230.8 X84.828 Y94.34 E6.02508
G1 F1233.9 X84.806 Y94.526 E6.03114
G1 F1209.1 X84.657 Y94.896 E6.04431
G1 F1200 X84.531 Y95.116 E6.05274
G1 X84.303 Y95.396 E6.06475
G1 X83.97 Y95.661 E6.07891
G1 X83.504 Y95.856 E6.09571
G1 X83.253 Y95.906 E6.10422
G1 X82.435 Y95.91 E6.13143
G1 X82.187 Y95.867 E6.1398
G1 X81.71 Y95.659 E6.15711
G1 X81.376 Y95.391 E6.17135
G1 X81.152 Y95.114 E6.1832
G1 X81.024 Y94.893 E6.19169
G1 F1209.1 X80.874 Y94.529 E6.20469
G1 F1237.1 X80.853 Y94.256 E6.21352
G1 F1227.6 X80.789 Y94.642 E6.22624
G1 F1200 X80.688 Y94.893 E6.23524
G1 X80.56 Y95.114 E6.24374
G1 X80.336 Y95.391 E6.25558
G1 X80.005 Y95.66 E6.26977
G1 X79.536 Y95.856 E6.28668
G1 X79.285 Y95.906 E6.29519
G1 X78.465 Y95.911 E6.32246
G1 X78.201 Y95.858 E6.33142
G1 X77.765 Y95.674 E6.34716
G1 X77.389 Y95.387 E6.36289
G1 X77.11 Y95.02 E6.37822
G1 X76.913 Y94.559 E6.3949
G1 X76.877 Y94.361 E6.40159
G1 X76.873 Y45.017 E8.04278
G1 X76.92 Y44.772 E8.05108
G1 X77.107 Y44.315 E8.0675
G1 X77.396 Y43.936 E8.08335
G1 X77.766 Y43.658 E8.09875
G1 X78.224 Y43.462 E8.11532
G1 X78.46 Y43.422 E8.12328
G1 X79.275 Y43.422 E8.15038
G1 X79.53 Y43.473 E8.15903
G1 X80.001 Y43.67 E8.17601
G1 X80.33 Y43.931 E8.18998
G1 X80.56 Y44.214 E8.20211
G1 F1215.2 X80.713 Y44.479 E8.21216
G1 F1230.8 X80.837 Y45.025 E8.23032
G1 F1215.2 X80.916 Y44.696 E8.24143
G1 F1200 X81.024 Y44.436 E8.25079
G1 X81.152 Y44.214 E8.25932
G1 X81.385 Y43.932 E8.27148
G1 X81.715 Y43.671 E8.28548
G1 X82.188 Y43.465 E8.30264
G1 X82.433 Y43.422 E8.31091
G1 X83.247 Y43.422 E8.33798
G1 X83.5 Y43.467 E8.34653
G1 X83.972 Y43.673 E8.36366
G1 X84.299 Y43.932 E8.37753
G1 X84.525 Y44.204 E8.3893
G1 X84.663 Y44.443 E8.39848
G1 F1212.1 X84.811 Y44.808 E8.41144
G1 F1256.5 X84.826 Y45.08 E8.4201
G1 X84.844 Y44.803 E8.42891
G1 F1212.1 X84.996 Y44.436 E8.44199
G1 F1200 X85.131 Y44.204 E8.45092
G1 X85.357 Y43.932 E8.46268
G1 X85.685 Y43.672 E8.47661
G1 X86.147 Y43.474 E8.49332
G1 X86.405 Y43.422 E8.50208
G1 X87.28 Y43.422 E8.53118
G1 X87.536 Y43.496 E8.54004
G1 X87.943 Y43.672 E8.55479
G1 X88.277 Y43.937 E8.56897
G1 X88.504 Y44.217 E8.58096
G1 X88.631 Y44.436 E8.58938
G1 F1212.1 X88.781 Y44.792 E8.6021
G1 F1256.5 X88.798 Y45.072 E8.61101
G1 X88.817 Y44.795 E8.61983
G1 F1212.1 X88.968 Y44.436 E8.63265
G1 F1200 X89.094 Y44.216 E8.64109
G1 X89.323 Y43.937 E8.65309
G1 X89.652 Y43.672 E8.66714
G1 X90.119 Y43.474 E8.68401
G1 X90.377 Y43.422 E8.69277
G1 X91.191 Y43.422 E8.71984
G1 X91.424 Y43.458 E8.72768
G1 X91.916 Y43.673 E8.74554
G1 X92.249 Y43.937 E8.75967
G1 X92.474 Y44.216 E8.7716
G1 X92.603 Y44.443 E8.78028
G1 F1209.1 X92.756 Y44.809 E8.79337
G1 F1240.3 X92.775 Y45.085 E8.80228
G1 F1230.8 X92.84 Y44.683 E8.81548
G1 F1200 X92.996 Y44.301 E8.82921
G1 X93.295 Y43.937 E8.84487
G1 X93.622 Y43.673 E8.85885
G1 X94.087 Y43.474 E8.87568
G1 X94.345 Y43.422 E8.88443
G1 X95.22 Y43.422 E8.91353
G1 X95.476 Y43.496 E8.92239
G1 X95.884 Y43.672 E8.93717
G1 X96.211 Y43.932 E8.95107
G1 X96.446 Y44.216 E8.96333
G1 X96.573 Y44.437 E8.97181
G1 F1212.1 X96.726 Y44.8 E8.98478
G1 F1256.5 X96.742 Y45.08 E8.99369
G1 X96.762 Y44.793 E9.00282
G1 F1218.3 X96.971 Y44.298 E9.02043
G1 F1206 X97.269 Y43.932 E9.03605
G1 F1200 X97.597 Y43.672 E9.04997
G1 X98.059 Y43.474 E9.06669
G1 X98.317 Y43.422 E9.07544
G1 X99.192 Y43.422 E9.10454
G1 X99.448 Y43.496 E9.11341
G1 X99.855 Y43.672 E9.12815
G1 X100.189 Y43.937 E9.14233
G1 X100.408 Y44.204 E9.15382
G1 X100.538 Y44.422 E9.16226
G1 F1209.1 X100.701 Y44.807 E9.17606
G1 F1237.1 X100.719 Y45.076 E9.18476
G1 F1227.6 X100.78 Y44.683 E9.19769
G1 F1200 X100.888 Y44.422 E9.20709
G1 X101.017 Y44.203 E9.21554
G1 X101.235 Y43.937 E9.22698
G1 X101.564 Y43.672 E9.24103
G1 X102.031 Y43.474 E9.2579
G1 X102.289 Y43.422 E9.26665
G1 X103.103 Y43.422 E9.29373
G1 X103.356 Y43.467 E9.30227
G1 X103.828 Y43.673 E9.3194
G1 X104.155 Y43.932 E9.33328
G1 X104.39 Y44.216 E9.34554
G1 X104.52 Y44.443 E9.35424
G1 F1209.1 X104.668 Y44.811 E9.36733
G1 F1246.8 X104.684 Y45.08 E9.37596
G1 X104.703 Y44.801 E9.38491
G1 F1209.1 X104.856 Y44.436 E9.39798
G1 F1200 X104.982 Y44.216 E9.40641
G1 X105.213 Y43.932 E9.41858
G1 X105.541 Y43.672 E9.4325
G1 X106.003 Y43.474 E9.44922
G1 X106.261 Y43.422 E9.45798
G1 X107.074 Y43.422 E9.48502
G1 X107.302 Y43.459 E9.4927
G1 X107.772 Y43.654 E9.50962
G1 X108.136 Y43.928 E9.52478
G1 X108.414 Y44.292 E9.54001
G1 X108.508 Y44.488 E9.54724
G1 X108.668 Y45.08 E9.56764
G1 X108.672 Y94.151 E11.19975
G1 X108.62 Y94.565 E11.21362
G1 X108.43 Y95.022 E11.23008
G1 X108.142 Y95.393 E11.24571
G1 X107.794 Y95.665 E11.2604
G1 X107.335 Y95.857 E11.27694
G1 X107.086 Y95.906 E11.28539
G1 X106.263 Y95.91 E11.31276
G1 X106.015 Y95.867 E11.32113
G1 X105.539 Y95.659 E11.33841
G1 X105.207 Y95.394 E11.35254
G1 X104.98 Y95.115 E11.3645
G1 X104.853 Y94.896 E11.37292
G1 F1206 X104.749 Y94.637 E11.38216
G1 F1237.1 X104.686 Y94.34 E11.39195
G1 F1243.5 X104.665 Y94.529 E11.39805
G1 F1212.1 X104.516 Y94.896 E11.4111
G1 F1200 X104.39 Y95.116 E11.41953
G1 X104.161 Y95.394 E11.43151
G1 F2700 E6.43151
G0 F6000 X103.212 Y95.75
G0 X102.194 Y95.751
G0 X101.677 Y95.538
G0 X100.52 Y94.537
G0 X100.355 Y94.934
G0 X100.094 Y95.277
G0 X99.751 Y95.538
G0 X99.241 Y95.75
G0 X98.223 Y95.751
G0 X97.707 Y95.538
G0 X97.364 Y95.277
G0 X97.103 Y94.934
G0 X96.891 Y94.422
G0 X96.595 Y44.912
G0 X96.383 Y44.398
G0 X96.122 Y44.059
G0 X95.779 Y43.795
G0 X95.258 Y43.583
G0 X94.249 Y43.584
G0 X93.831 Y43.756
G0 X93.107 Y44.331
G0 X93.341 Y44.512
G1 F2700 E11.43151
G1 F1200 X93.574 Y44.225 E11.4438
G1 X93.837 Y44.014 E11.45502
G1 X94.283 Y43.821 E11.47118
G1 X95.22 Y43.821 E11.50235
G1 X95.668 Y44.012 E11.51854
G1 X95.935 Y44.222 E11.52984
G1 X96.169 Y44.51 E11.54219
G1 X96.356 Y44.952 E11.55815
G1 X96.354 Y94.352 E13.2012
G1 X96.175 Y94.814 E13.21768
G1 X95.938 Y95.107 E13.23021
G1 X95.673 Y95.319 E13.2415
G1 X95.221 Y95.507 E13.25778
G1 X94.289 Y95.511 E13.28878
G1 X93.839 Y95.319 E13.30505
G1 X93.574 Y95.108 E13.31632
G1 X93.337 Y94.817 E13.3288
G1 X93.158 Y94.38 E13.34451
G1 X93.156 Y45.22 E14.97958
G1 X93.196 Y44.869 E14.99133
G1 X93.341 Y44.512 E15.00414
G0 F6000 X92.775 Y45.085
G1 F1263.2 X92.77 Y94.34 E16.56046
G0 F6000 X93.393 Y95.276
G0 X93.733 Y95.538
G0 X94.251 Y95.751
G0 X95.269 Y95.75
G0 X95.779 Y95.538
G0 X96.088 Y95.303
G0 X96.742 Y94.34
G1 F1269.8 X96.742 Y69.71 E17.3346
G1 F1283.4 X96.742 Y45.08 E18.10055
G0 F6000 X97.128 Y44.955
G1 F1200 X97.314 Y44.512 E18.11653
G1 X97.545 Y44.222 E18.12886
G1 X97.811 Y44.013 E18.14011
G1 X98.255 Y43.821 E18.1562
G1 X99.192 Y43.821 E18.18737
G1 X99.64 Y44.012 E18.20356
G1 X99.91 Y44.225 E18.215
G1 X100.14 Y44.508 E18.22713
G1 X100.328 Y44.953 E18.2432
G1 X100.324 Y94.382 E19.88721
G1 X100.139 Y94.827 E19.90324
G1 X99.91 Y95.107 E19.91527
G1 X99.645 Y95.319 E19.92656
G1 X99.193 Y95.507 E19.94284
G1 X98.261 Y95.511 E19.97384
G1 X97.811 Y95.319 E19.99012
G1 X97.542 Y95.107 E20.00151
G1 X97.314 Y94.815 E20.01383
G1 X97.13 Y94.386 E20.02935
G1 X97.128 Y44.955 E21.67344
G0 F6000 X96.861 Y44.921
G0 X97.103 Y44.398
G0 X97.364 Y44.059
G0 X97.707 Y43.796
G0 X98.221 Y43.584
G0 X99.23 Y43.583
G0 X99.751 Y43.795
G0 X100.094 Y44.059
G0 X100.719 Y45.076
G1 F1256.5 X100.718 Y94.252 E23.23543
G0 F6000 X101.042 Y94.892
G0 X101.337 Y95.277
G0 X101.677 Y95.538
G0 X102.194 Y95.751
G0 X103.212 Y95.75
G0 X103.722 Y95.538
G0 X104.031 Y95.303
G0 X104.686 Y94.34
G1 F1269.8 X104.684 Y45.08 E24.78372
G0 F6000 X104.326 Y44.398
G0 X104.065 Y44.059
G0 X103.722 Y43.795
G0 X103.201 Y43.583
G0 X102.192 Y43.584
G0 X101.675 Y43.796
G0 X101.401 Y44.009
G0 X100.885 Y44.703
G0 X101.157 Y44.814
G1 F1200 X101.288 Y44.504 E24.79491
G1 X101.514 Y44.225 E24.80685
G1 X101.78 Y44.012 E24.81819
G1 X102.249 Y43.821 E24.83503
G1 X103.157 Y43.821 E24.86523
G1 X103.612 Y44.012 E24.88164
G1 X103.879 Y44.222 E24.89294
G1 X104.116 Y44.513 E24.90542
G1 X104.296 Y44.954 E24.92127
G1 X104.298 Y94.378 E26.56511
G1 X104.116 Y94.819 E26.58098
G1 X103.882 Y95.107 E26.59332
G1 X103.617 Y95.319 E26.60461
G1 X103.165 Y95.507 E26.62089
G1 X102.233 Y95.511 E26.65189
G1 X101.783 Y95.319 E26.66816
G1 X101.514 Y95.107 E26.67956
G1 X101.266 Y94.804 E26.69258
G1 X101.105 Y94.2 E26.71337
G1 X101.103 Y45.151 E28.34475
G1 X101.157 Y44.814 E28.3561
G0 F6000 X100.885 Y44.703
G0 X99.751 Y43.795
G0 X99.23 Y43.583
G0 X98.221 Y43.584
G0 X97.707 Y43.796
G0 X96.541 Y44.782
G0 X96.383 Y44.398
G0 X96.122 Y44.059
G0 X95.779 Y43.795
G0 X95.258 Y43.583
G0 X94.249 Y43.584
G0 X93.732 Y43.796
G0 X92.599 Y44.854
G0 X92.412 Y44.398
G0 X92.151 Y44.059
G0 X91.808 Y43.795
G0 X91.287 Y43.583
G0 X90.278 Y43.584
G0 X89.764 Y43.796
G0 X89.421 Y44.059
G0 X88.918 Y44.922
G0 X89.184 Y44.956
G1 F1200 X89.371 Y44.508 E28.37224
G1 X89.602 Y44.225 E28.38439
G1 X89.868 Y44.012 E28.39573
G1 X90.337 Y43.821 E28.41257
G1 X91.245 Y43.821 E28.44277
G1 X91.7 Y44.012 E28.45918
G1 X91.97 Y44.225 E28.47062
G1 X92.198 Y44.512 E28.48281
G1 X92.385 Y44.956 E28.49884
G1 X92.382 Y94.378 E30.14262
G1 X92.201 Y94.816 E30.15838
G1 X91.97 Y95.108 E30.17077
G1 X91.699 Y95.32 E30.18221
G1 X91.249 Y95.507 E30.19842
G1 X90.322 Y95.511 E30.22925
G1 X89.867 Y95.319 E30.24568
G1 X89.6 Y95.105 E30.25706
G1 X89.372 Y94.819 E30.26922
G1 X89.185 Y94.384 E30.28497
G1 X89.184 Y44.956 E31.92895
G0 F6000 X88.798 Y45.072
G1 F1286.9 X88.797 Y61.467 E32.43745
G1 F1273.2 X88.795 Y77.862 E32.95139
G1 F1263.2 X88.793 Y94.257 E33.46943
G0 F6000 X88.44 Y94.934
G0 X88.179 Y95.276
G0 X87.839 Y95.537
G0 X87.327 Y95.75
G0 X86.309 Y95.751
G0 X85.793 Y95.538
G0 X85.484 Y95.303
G0 X84.828 Y94.34
G1 F1256.5 X84.828 Y77.92 E33.99098
G1 F1269.8 X84.827 Y61.5 E34.50707
G1 F1283.4 X84.826 Y45.08 E35.01771
G1 F2700 E30.01771
G0 F6000 X84.469 Y44.398
G0 X84.208 Y44.059
G0 X83.865 Y43.795
G0 X83.344 Y43.583
G0 X82.335 Y43.584
G0 X81.025 Y44.114
G0 X80.856 Y44.372
G0 X80.643 Y44.068
G0 X78.401 Y43.241
G0 X78.401 Y20.972
G0 X9.316 Y20.772
G1 F2700 E35.01771
G1 F1200 X9.316 Y118.572 E38.27055
G1 X176.232 Y118.572 E43.8222
G1 X176.232 Y20.772 E47.07504
G1 X9.316 Y20.772 E52.62669
G1 F2700 E47.62669
G0 F6000 X176.362 Y20.642
G0 X176.632 Y20.372
G1 F2700 E52.62669
G1 F1200 X8.916 Y20.372 E58.20494
G1 X8.916 Y118.972 E61.48439
G1 X176.632 Y118.972 E67.06265
G1 X176.632 Y20.372 E70.3421
G1 F2700 E65.3421
G0 F6000 X176.362 Y20.642
G0 X176.032 Y69.197
G0 X163.361 Y68.697
G0 X162.994 Y69.197
G1 F2700 E70.3421
G1 F1200 X162.837 Y69.439 E70.35169
G1 X161.739 Y70.493 E70.40232
G1 X161.508 Y70.615 E70.41101
G1 X161.046 Y70.797 E70.42752
G1 X160.796 Y70.82 E70.43587
G1 X158.845 Y70.82 E70.50076
G1 X158.564 Y70.791 E70.51016
G1 X158.126 Y70.587 E70.52623
G1 X157.832 Y70.304 E70.5398
G1 X157.648 Y70.064 E70.54986
G1 X157.517 Y69.725 E70.56195
G1 X157.48 Y69.486 E70.56999
G1 X157.484 Y63.271 E70.7767
G1 X157.547 Y62.853 E70.79076
G1 X157.73 Y62.442 E70.80573
G1 X157.998 Y62.069 E70.821
G1 X158.393 Y61.768 E70.83752
G1 X158.894 Y61.555 E70.85563
G1 X159.136 Y61.52 E70.86376
G1 X160.894 Y61.524 E70.92223
G1 X161.113 Y61.571 E70.92968
G1 X161.571 Y61.757 E70.94612
G1 X161.76 Y61.877 E70.95357
G1 X162.755 Y62.823 E70.99923
G1 X162.872 Y62.988 E71.00596
G1 X163.134 Y63.592 E71.02786
G1 X163.175 Y63.792 E71.03465
G1 X163.175 Y68.66 E71.19656
G1 X162.994 Y69.197 E71.21541
G0 F6000 X161.591 Y70.408
G0 X161.022 Y70.635
G0 X158.606 Y70.694
G0 X158.72 Y70.42
G1 F1200 X158.344 Y70.251 E71.22912
G1 X158.04 Y69.942 E71.24353
G1 X157.885 Y69.587 E71.25642
G1 X157.882 Y63.31 E71.46519
G1 X157.923 Y62.998 E71.47566
G1 X158.067 Y62.659 E71.48791
G1 X158.289 Y62.357 E71.50037
G1 X158.601 Y62.113 E71.51355
G1 X159.069 Y61.92 E71.53039
G1 X160.927 Y61.926 E71.59218
G1 X161.468 Y62.145 E71.6116
G1 X162.504 Y63.13 E71.65914
G1 X162.777 Y63.772 E71.68234
G1 X162.777 Y68.593 E71.84269
G1 X162.63 Y69.031 E71.85806
