;FLAVOR:Marlin
;TIME:12077
;Filament used: 7.65486m
;Layer height: 0.16
;MINX:0
;MINY:3.088
;MINZ:0.2
;MAXX:220
;MAXY:45.088
;MAXZ:6.44
;TARGET_MACHINE.NAME:Creality Ender-3
;Generated with Cura_SteamEngine 5.7.0
M140 S50
M105
M190 S50
M104 S200
M105
M109 S200
M82 ;absolute extrusion mode
; Ender 3 Custom Start G-code
G92 E0 ; Reset Extruder
G28 ; Home all axes
G1 Z2.0 F3000 ; Move Z Axis up little to prevent scratching of Heat Bed
G1 X0.1 Y20 Z0.3 F5000.0 ; Move to start position
G1 X0.1 Y200.0 Z0.3 F1500.0 E15 ; Draw the first line
G1 X0.4 Y200.0 Z0.3 F5000.0 ; Move to side a little
G1 X0.4 Y20 Z0.3 F1500.0 E30 ; Draw the second line
G92 E0 ; Reset Extruder
G1 Z2.0 F3000 ; Move Z Axis up little to prevent scratching of Heat Bed
G1 X5 Y20 Z0.3 F5000.0 ; Move over to prevent blob squish
G92 E0
G92 E0
G1 F2700 E-5
;LAYER_COUNT:34
;LAYER:0
M107
G0 F6000 X0.00 Y3.147 Z0.2
;TYPE:SKIRT
G1 F2700 E0
G1 F1200 X0.581 Y3.101 E0.01938
G1 X1.188 Y3.088 E0.03958
G1 X217.18 Y3.088 E7.2235
G1 X218.06 Y3.101 E7.25277
G1 X219.032 Y3.16 E7.28516
G1 X220 Y3.305 E7.31772
G0 F6000 X220 Y3.71
G1 F1200 X218.973 Y3.556 E7.35226
G1 X218.036 Y3.5 E7.38348
G1 X217.174 Y3.488 E7.41215
G1 X1.197 Y3.488 E14.59557
G1 X0.59 Y3.501 E14.61577
G1 X0.00 Y3.549 E14.63546
G0 F6000 X0.00 Y3.951
G1 F1200 X0.599 Y3.901 E14.65545
G1 X1.206 Y3.888 E14.67564
G1 X217.169 Y3.888 E21.8586
G1 X218.013 Y3.899 E21.88667
G1 X218.915 Y3.952 E21.91673
G1 X219.808 Y4.084 E21.94675
G1 X220 Y4.13 E21.95332
G1 F2700 E16.95332
G0 F6000 X220 Y44.86
G1 F2700 E21.95332
G1 F1200 X219.372 Y44.975 E21.97455
G1 X218.221 Y45.073 E22.01297
G1 X217.546 Y45.088 E22.03543
G1 X1.44 Y45.087 E29.22314
G1 X0.707 Y45.076 E29.24753
G1 X0.00 Y45.035 E29.27108
G0 F6000 X0.00 Y44.635
G1 F1200 X0.73 Y44.677 E29.2954
G1 X1.446 Y44.687 E29.31922
G1 X217.546 Y44.688 E36.50673
G1 X218.187 Y44.674 E36.52806
G1 X219.338 Y44.576 E36.56648
G1 X220 Y44.454 E36.58887
G0 F6000 X220 Y44.047
G1 F1200 X219.304 Y44.177 E36.61242
G1 X218.153 Y44.275 E36.65084
G1 X217.546 Y44.288 E36.67103
G1 X1.451 Y44.287 E43.85838
G1 X0.753 Y44.278 E43.8816
G1 X0.00 Y44.235 E43.90668
G1 F2700 E38.90668
;MESH:Healical Rack (220.0mm R@20.00 m=1.stl
G0 F6000 X1.29 Y34.753
G0 X1.29 Y33.674
G0 X2.468 Y25.199
G0 X4.814 Y26.547
G0 X7.381 Y26.689
;TYPE:WALL-INNER
G1 F2700 E43.90668
G1 F1200 X6.66 Y26.993 E43.93271
G1 X5.876 Y27.093 E43.959
G1 X5.236 Y27.013 E43.98045
G1 X4.978 Y26.945 E43.98932
G1 X4.494 Y26.745 E44.00674
G1 X4.266 Y26.613 E44.0155
G1 X3.85 Y26.293 E44.03296
G1 X3.663 Y26.106 E44.04175
G1 X3.347 Y25.689 E44.05916
G1 X3.221 Y25.469 E44.06759
G1 X2.97 Y24.866 E44.08931
G1 X2.867 Y24.088 E44.11541
G1 X2.952 Y23.441 E44.13712
G1 X3.019 Y23.19 E44.14576
G1 X3.219 Y22.706 E44.16318
G1 X3.347 Y22.483 E44.17173
G1 X3.663 Y22.066 E44.18913
G1 X3.854 Y21.875 E44.19812
G1 X4.372 Y21.482 E44.21974
G1 X4.971 Y21.23 E44.24136
G1 X5.237 Y21.159 E44.25051
G1 X5.874 Y21.079 E44.27187
G1 X6.516 Y21.159 E44.29338
G1 X6.781 Y21.23 E44.30251
G1 X7.381 Y21.483 E44.32417
G1 X8.009 Y21.96 E44.3504
G1 X8.48 Y22.583 E44.37637
G1 X8.787 Y23.332 E44.4033
G1 X8.881 Y24.09 E44.4287
G1 X8.781 Y24.861 E44.45456
G1 X8.479 Y25.59 E44.4808
G1 X8.007 Y26.213 E44.5068
G1 X7.381 Y26.689 E44.53296
G0 F6000 X7.18 Y26.34
G1 F1200 X6.551 Y26.604 E44.55564
G1 X5.876 Y26.684 E44.57825
G1 X5.207 Y26.607 E44.60065
G1 X4.574 Y26.345 E44.62344
G1 X4.029 Y25.926 E44.6463
G1 X3.619 Y25.386 E44.66885
G1 X3.358 Y24.759 E44.69144
G1 X3.276 Y24.088 E44.71392
G1 X3.358 Y23.416 E44.73644
G1 X3.618 Y22.789 E44.75902
G1 X4.031 Y22.243 E44.78179
G1 X4.574 Y21.832 E44.80444
G1 X5.206 Y21.565 E44.82726
G1 X5.876 Y21.488 E44.84969
G1 X6.546 Y21.565 E44.87212
G1 X7.18 Y21.833 E44.89501
G1 X7.719 Y22.249 E44.91766
G1 X8.128 Y22.779 E44.93992
G1 X8.393 Y23.421 E44.96302
G1 X8.472 Y24.088 E44.98536
G1 X8.396 Y24.75 E45.00753
G1 X8.125 Y25.386 E45.03052
G1 X7.719 Y25.923 E45.05291
G1 X7.18 Y26.34 E45.07558
G0 F6000 X7.362 Y26.58
G0 X6.613 Y26.837
G0 X5.876 Y26.935
G0 X5.14 Y26.837
G0 X4.453 Y26.553
G0 X2.417 Y24.805
G1 F750 X2.376 Y24.088 E45.1138
G1 X2.417 Y23.371 E45.15201
G1 F2700 E40.15201
G0 F6000 X4.654 Y21.973
G0 X5.245 Y21.728
G0 X5.876 Y21.645
G0 X6.508 Y21.728
G0 X7.098 Y21.973
G0 X7.604 Y22.361
G0 X7.991 Y22.866
G0 X8.236 Y23.457
G0 X8.295 Y23.908
G0 X9.476 Y24.015
G0 X208.885 Y26.041
G0 X210.341 Y27.115
G1 F2700 E45.15201
G1 F1200 X210.022 Y26.93 E45.16428
G1 X209.459 Y26.497 E45.1879
G1 X208.919 Y25.786 E45.2176
G1 X208.651 Y25.143 E45.24077
G1 X208.571 Y24.906 E45.24909
G1 X208.467 Y24.087 E45.27655
G1 X208.579 Y23.209 E45.30598
G1 X208.919 Y22.385 E45.33563
G1 X209.423 Y21.723 E45.36331
G1 X209.613 Y21.557 E45.3717
G1 X210.029 Y21.241 E45.38907
G1 X210.332 Y21.065 E45.40073
G1 X210.816 Y20.861 E45.4182
G1 X211.118 Y20.773 E45.42866
G1 X211.875 Y20.676 E45.45404
G1 X212.565 Y20.762 E45.47717
G1 X212.846 Y20.827 E45.48676
G1 X213.42 Y21.065 E45.50743
G1 X213.724 Y21.24 E45.5191
G1 X214.14 Y21.557 E45.53649
G1 X214.408 Y21.826 E45.54912
G1 X214.721 Y22.238 E45.56633
G1 X214.896 Y22.544 E45.57805
G1 X215.1 Y23.032 E45.59565
G1 X215.198 Y23.399 E45.60828
G1 X215.282 Y24.092 E45.6315
G1 X215.188 Y24.846 E45.65677
G1 X215.099 Y25.148 E45.66724
G1 X214.895 Y25.633 E45.68474
G1 X214.721 Y25.934 E45.69631
G1 X214.408 Y26.346 E45.71352
G1 X214.14 Y26.615 E45.72615
G1 X213.724 Y26.932 E45.74354
G1 X213.42 Y27.107 E45.75521
G1 X212.755 Y27.384 E45.77917
G1 X211.877 Y27.496 E45.80861
G1 X211.187 Y27.41 E45.83173
G1 X210.825 Y27.314 E45.84419
G1 X210.341 Y27.115 E45.8616
G0 F6000 X210.494 Y26.745
G1 F1200 X210.266 Y26.613 E45.87036
G1 X209.743 Y26.211 E45.8923
G1 X209.269 Y25.586 E45.91839
G1 X208.969 Y24.867 E45.9443
G1 X208.867 Y24.088 E45.97043
G1 X208.969 Y23.31 E45.99653
G1 X209.27 Y22.585 E46.02264
G1 X209.746 Y21.958 E46.04882
G1 X210.371 Y21.483 E46.07493
G1 X211.092 Y21.179 E46.10096
G1 X211.876 Y21.079 E46.12724
G1 X212.644 Y21.175 E46.15299
G1 X213.265 Y21.434 E46.17536
G1 X213.482 Y21.559 E46.18369
G1 X213.898 Y21.875 E46.20107
G1 X214.089 Y22.068 E46.2101
G1 X214.402 Y22.48 E46.22731
G1 X214.527 Y22.698 E46.23567
G1 X214.731 Y23.186 E46.25326
G1 X214.801 Y23.449 E46.26231
G1 X214.881 Y24.09 E46.2838
G1 X214.782 Y24.869 E46.30991
G1 X214.477 Y25.593 E46.33604
G1 X214.089 Y26.104 E46.35738
G1 X213.898 Y26.297 E46.36642
G1 X213.482 Y26.613 E46.38379
G1 X213.265 Y26.738 E46.39212
G1 X212.651 Y26.994 E46.41425
G1 X211.876 Y27.093 E46.44023
G1 X211.237 Y27.013 E46.46165
G1 X210.978 Y26.945 E46.47056
G1 X210.494 Y26.745 E46.48798
G0 F6000 X210.572 Y26.344
G1 F1200 X210.032 Y25.922 E46.51077
G1 X209.622 Y25.381 E46.53335
G1 X209.363 Y24.757 E46.55582
G1 X209.272 Y24.088 E46.57827
G1 X209.363 Y23.42 E46.6007
G1 X209.622 Y22.791 E46.62332
G1 X210.034 Y22.249 E46.64597
G1 X210.572 Y21.833 E46.66859
G1 X211.201 Y21.568 E46.69129
G1 X211.876 Y21.488 E46.71389
G1 X212.54 Y21.565 E46.73613
G1 X213.176 Y21.83 E46.75904
G1 X213.722 Y22.244 E46.78183
G1 X214.128 Y22.781 E46.80422
G1 X214.395 Y23.418 E46.8272
G1 X214.472 Y24.088 E46.84963
G1 X214.394 Y24.758 E46.87206
G1 X214.13 Y25.389 E46.89481
G1 X213.722 Y25.928 E46.9173
G1 X213.176 Y26.342 E46.94009
G1 X212.539 Y26.608 E46.96305
G1 X211.876 Y26.684 E46.98524
G1 X211.207 Y26.607 E47.00764
G1 X210.572 Y26.344 E47.0305
G1 F2700 E42.0305
G0 F6000 X210.457 Y26.62
G0 X212.072 Y27.654
G0 X216.276 Y27.654
G0 X216.476 Y32.688
G1 F2700 E47.0305
G1 F1200 X216.476 Y15.488 E47.60257
G1 X2.276 Y15.488 E54.7269
G1 X2.276 Y22.963 E54.97552
G1 F888.9 X2.417 Y23.371 E54.9949
G1 X2.65 Y23.037 E55.01318
G1 F1200 X2.85 Y22.553 E55.0306
G1 X3.028 Y22.241 E55.04255
G1 X3.344 Y21.824 E55.05995
G1 X3.612 Y21.557 E55.07253
G1 X4.029 Y21.241 E55.08994
G1 X4.332 Y21.065 E55.10159
G1 X4.816 Y20.861 E55.11906
G1 X5.187 Y20.762 E55.13183
G1 X5.874 Y20.676 E55.15486
G1 X6.565 Y20.762 E55.17802
G1 X6.936 Y20.861 E55.19079
G1 X7.42 Y21.065 E55.20826
G1 X7.723 Y21.241 E55.21991
G1 X8.244 Y21.637 E55.24168
G1 X8.409 Y21.826 E55.25002
G1 X8.83 Y22.382 E55.27322
G1 X9.178 Y23.235 E55.30386
G1 X9.284 Y24.092 E55.33258
G1 X9.169 Y24.963 E55.3618
G1 X8.83 Y25.79 E55.39153
G1 X8.334 Y26.445 E55.41886
G1 X8.139 Y26.615 E55.42746
G1 X7.723 Y26.931 E55.44484
G1 X7.42 Y27.107 E55.45649
G1 X6.936 Y27.31 E55.47395
G1 X6.634 Y27.399 E55.48442
G1 X5.877 Y27.496 E55.5098
G1 X5.187 Y27.41 E55.53293
G1 X4.825 Y27.314 E55.54539
G1 X4.341 Y27.115 E55.56279
G1 X4.022 Y26.93 E55.57506
G1 X3.606 Y26.61 E55.59251
G1 X3.344 Y26.348 E55.60484
G1 X3.028 Y25.931 E55.62224
G1 X2.851 Y25.623 E55.63406
G1 X2.651 Y25.143 E55.65135
G1 F1021.3 X2.413 Y24.816 E55.66716
G1 X2.276 Y25.218 E55.68375
G1 F1200 X2.277 Y32.687 E55.93217
G1 X216.476 Y32.688 E63.05646
G0 F6000 X216.876 Y33.088
G1 F1200 X216.876 Y15.088 E63.65514
G1 X1.876 Y15.088 E70.80607
G1 X1.877 Y33.087 E71.40472
G1 X216.876 Y33.088 E78.55562
G0 F6000 X217.276 Y33.488
G1 F1200 X217.276 Y14.688 E79.18091
G1 X1.476 Y14.688 E86.35845
G1 X1.477 Y33.487 E86.9837
G1 X217.276 Y33.488 E94.16121
G0 F6000 X217.676 Y33.888
;TYPE:WALL-OUTER
G1 F1200 X217.676 Y14.288 E94.81311
G1 X1.076 Y14.288 E102.01725
G1 X1.077 Y33.887 E102.66912
G1 X217.676 Y33.888 E109.87323
G1 F2700 E104.87323
G0 F6000 X217.406 Y33.618
G0 X216.276 Y26.641
G0 X214.864 Y26.043
G0 X212.613 Y26.837
G0 X211.876 Y26.935
G0 X211.459 Y26.88
G0 X210.507 Y26.641
G0 X210.775 Y25.995
G1 F2700 E109.87323
G1 F1200 X210.317 Y25.641 E109.89248
G1 X209.984 Y25.205 E109.91073
G1 X209.75 Y24.655 E109.93061
G1 X209.676 Y24.101 E109.9492
G1 X209.75 Y23.521 E109.96865
G1 X209.97 Y22.989 E109.98779
G1 X210.317 Y22.528 E110.00698
G1 X210.798 Y22.171 E110.02691
G1 X211.307 Y21.956 E110.04528
G1 X211.876 Y21.888 E110.06434
G1 X212.457 Y21.962 E110.08382
G1 X212.998 Y22.196 E110.10343
G1 X213.435 Y22.528 E110.12168
G1 X213.789 Y23.006 E110.14147
G1 X214.004 Y23.52 E110.16
G1 X214.072 Y24.088 E110.17902
G1 X214.006 Y24.639 E110.19748
G1 X213.789 Y25.166 E110.21644
G1 X213.435 Y25.644 E110.23622
G1 X212.998 Y25.976 E110.25447
G1 X212.457 Y26.21 E110.27408
G1 X211.876 Y26.284 E110.29356
G1 X211.309 Y26.216 E110.31255
G1 X210.775 Y25.995 E110.33177
G1 F2700 E105.33177
G0 F6000 X210.507 Y26.641
G0 X208.885 Y26.041
G0 X8.963 Y25.944
G0 X7.222 Y26.651
G0 X6.954 Y26.001
G1 F2700 E110.33177
G1 F1200 X6.445 Y26.216 E110.35015
G1 X5.876 Y26.284 E110.36921
G1 X5.309 Y26.216 E110.38821
G1 X4.774 Y25.995 E110.40746
G1 X4.3 Y25.622 E110.42752
G1 X3.984 Y25.205 E110.44492
G1 X3.746 Y24.639 E110.46534
G1 X3.673 Y24.088 E110.48383
G1 X3.745 Y23.545 E110.50205
G1 X3.968 Y22.988 E110.522
G1 X4.317 Y22.528 E110.54121
G1 X4.798 Y22.171 E110.56113
G1 X5.307 Y21.956 E110.57951
G1 X5.876 Y21.888 E110.59857
G1 X6.446 Y21.956 E110.61766
G1 X6.997 Y22.196 E110.63765
G1 X7.435 Y22.531 E110.65599
G1 X7.789 Y23.006 E110.67569
G1 X8 Y23.513 E110.69396
G1 X8.072 Y24.088 E110.71323
G1 X8 Y24.664 E110.73254
G1 X7.778 Y25.188 E110.75147
G1 X7.435 Y25.641 E110.77037
G1 X6.954 Y26.001 E110.79035
G1 F2700 E105.79035
G0 F6000 X7.222 Y26.651
G0 X4.761 Y27.462
G0 X2.468 Y25.199
G0 X2.449 Y32.515
G0 X216.115 Y32.587
G0 X216.116 Y32.328
;TYPE:SKIN
G1 F2700 E110.79035
G1 F1200 X2.636 Y32.324 E117.89072
G1 X2.632 Y26.004 E118.10093
G1 X3.075 Y26.591 E118.12539
G1 X3.363 Y26.875 E118.13884
G1 X3.821 Y27.231 E118.15813
G1 X4.181 Y27.434 E118.17188
G1 X4.683 Y27.645 E118.18999
G1 X5.121 Y27.762 E118.20507
G1 X5.774 Y27.847 E118.22697
G1 X6.077 Y27.832 E118.23706
G1 X6.686 Y27.755 E118.25748
G1 X7.078 Y27.641 E118.27106
G1 X7.554 Y27.441 E118.28823
G1 X7.921 Y27.229 E118.30233
G1 X8.365 Y26.896 E118.32079
G1 X8.581 Y26.706 E118.33035
G1 X9.084 Y26.045 E118.35798
G1 X9.224 Y25.769 E118.36827
G1 X9.518 Y25.055 E118.39396
G1 X9.619 Y24.303 E118.41919
G1 X9.635 Y23.993 E118.42952
G1 X9.514 Y23.092 E118.45975
G1 X9.177 Y22.286 E118.48881
G1 X9.004 Y22.014 E118.49953
G1 X8.608 Y21.494 E118.52127
G1 X8.356 Y21.269 E118.53251
G1 X7.95 Y20.957 E118.54954
G1 X7.575 Y20.742 E118.56391
G1 X7.079 Y20.528 E118.58188
G1 X6.626 Y20.41 E118.59745
G1 X6.094 Y20.341 E118.61529
G1 X5.781 Y20.321 E118.62572
G1 X5.145 Y20.405 E118.64706
G1 X4.669 Y20.527 E118.66341
G1 X4.189 Y20.731 E118.68075
G1 X3.823 Y20.943 E118.69482
G1 X3.395 Y21.264 E118.71261
G1 X3.07 Y21.586 E118.72783
G1 X2.633 Y22.166 E118.75198
G1 X2.636 Y15.848 E118.96212
G1 X216.116 Y15.848 E126.0625
G1 X216.116 Y22.822 E126.29445
G1 F1088.4 X216.075 Y23.321 E126.31281
G1 F1041.2 X216.096 Y24.024 E126.33977
G1 F1034.5 X216.072 Y24.956 E126.37574
G1 F1081.1 X216.116 Y25.366 E126.39097
G1 F1200 X216.116 Y32.328 E126.62252
G1 F2700 E121.62252
G0 F6000 X216.115 Y32.587
G0 X210.312 Y32.507
G0 X210.755 Y27.481
G0 X210.314 Y27.212
G0 X210.183 Y27.437
G1 F2700 E126.62252
G1 F1200 X210.705 Y27.654 E126.64132
G1 X211.121 Y27.762 E126.65562
G1 X211.774 Y27.847 E126.67752
G1 X212.077 Y27.832 E126.68761
G1 X212.865 Y27.727 E126.71405
G1 X213.558 Y27.437 E126.73904
G1 X213.947 Y27.215 E126.75394
G1 X214.355 Y26.899 E126.7711
G1 X214.678 Y26.578 E126.78625
G1 X215.004 Y26.154 E126.80403
G1 X215.218 Y25.789 E126.81811
G1 F1081.1 X215.586 Y24.914 E126.85315
G1 F1032.3 X215.656 Y24.041 E126.88701
G1 F1041.2 X215.595 Y23.35 E126.9136
G1 F1088.4 X215.438 Y22.911 E126.9307
G1 F1200 X215.229 Y22.407 E126.94885
G1 X215.018 Y22.036 E126.96304
G1 X214.692 Y21.603 E126.98107
G1 X214.378 Y21.286 E126.99591
G1 X213.946 Y20.953 E127.01405
G1 X213.558 Y20.731 E127.02892
G1 X212.974 Y20.487 E127.04997
G1 X212.62 Y20.404 E127.06207
G1 X211.965 Y20.321 E127.08403
G1 X211.668 Y20.34 E127.09392
G1 X211.067 Y20.413 E127.11406
G1 X210.692 Y20.519 E127.12702
G1 X210.172 Y20.742 E127.14584
G1 X209.802 Y20.956 E127.16006
G1 X209.402 Y21.26 E127.17677
G1 X209.17 Y21.466 E127.18709
G1 X208.733 Y22.03 E127.21082
G1 X208.585 Y22.253 E127.21972
G1 X208.309 Y22.909 E127.24339
G1 X208.221 Y23.177 E127.25277
G1 X208.102 Y24.088 E127.28333
G1 X208.213 Y24.958 E127.3125
G1 X208.313 Y25.275 E127.32356
G1 X208.567 Y25.882 E127.34544
G1 X208.733 Y26.139 E127.35562
G1 X209.132 Y26.665 E127.37757
G1 X209.382 Y26.894 E127.38885
G1 X209.79 Y27.207 E127.40595
G1 X210.183 Y27.437 E127.4211
G1 F2700 E122.4211
G0 F6000 X210.314 Y27.212
G0 X212.613 Y26.837
G0 X213.298 Y26.553
G0 X213.89 Y26.101
G0 X214.341 Y25.51
G0 X214.625 Y24.825
G0 X214.723 Y24.088
G0 X214.625 Y23.352
G0 X213.49 Y20.898
G0 X213.49 Y15.688
G0 X215.735 Y15.588
G0 X215.735 Y16.048
G1 F2700 E127.4211
G1 F1200 X215.916 Y16.229 E127.42961
G0 F6000 X215.916 Y16.794
G1 F1200 X215.169 Y16.048 E127.46473
G0 F6000 X214.603 Y16.048
G1 F1200 X215.916 Y17.36 E127.52646
G0 F6000 X215.916 Y17.926
G1 F1200 X214.038 Y16.048 E127.6148
G0 F6000 X213.472 Y16.048
G1 F1200 X215.916 Y18.492 E127.72976
G0 F6000 X215.916 Y19.057
G1 F1200 X212.906 Y16.048 E127.87131
G0 F6000 X212.341 Y16.048
G1 F1200 X215.916 Y19.623 E128.03947
G0 F6000 X215.916 Y20.189
G1 F1200 X211.775 Y16.048 E128.23425
G0 F6000 X211.209 Y16.048
G1 F1200 X215.916 Y20.754 E128.45563
G0 F6000 X215.916 Y21.32
G1 F1200 X210.644 Y16.048 E128.70361
G0 F6000 X210.078 Y16.048
G1 F1200 X215.916 Y21.886 E128.97821
G0 F6000 X215.916 Y22.451
G1 F1200 X209.512 Y16.048 E129.27941
G0 F6000 X208.947 Y16.048
G1 F1200 X213.307 Y20.409 E129.48452
G0 F6000 X212.524 Y20.191
G1 F1200 X208.381 Y16.048 E129.67939
G0 F6000 X207.815 Y16.048
G1 F1200 X211.89 Y20.123 E129.87107
G0 F6000 X211.375 Y20.173
G1 F1200 X207.249 Y16.048 E130.06512
G0 F6000 X206.684 Y16.048
G1 F1200 X210.892 Y20.256 E130.26305
G0 F6000 X210.468 Y20.398
G1 F1200 X206.118 Y16.048 E130.46766
G0 F6000 X205.552 Y16.048
G1 F1200 X210.075 Y20.57 E130.68038
G0 F6000 X209.716 Y20.777
G1 F1200 X204.987 Y16.048 E130.90282
G0 F6000 X204.421 Y16.048
G1 F1200 X209.391 Y21.017 E131.13657
G0 F6000 X209.087 Y21.279
G1 F1200 X203.855 Y16.048 E131.38264
G0 F6000 X203.29 Y16.048
G1 F1200 X208.825 Y21.583 E131.64299
G0 F6000 X208.579 Y21.903
G1 F1200 X202.724 Y16.048 E131.91839
G0 F6000 X202.158 Y16.048
G1 F1200 X208.364 Y22.253 E132.21028
G0 F6000 X208.199 Y22.654
G1 F1200 X201.593 Y16.048 E132.52101
G0 F6000 X201.027 Y16.048
G1 F1200 X208.046 Y23.067 E132.85116
G0 F6000 X207.97 Y23.557
