;FLAVOR:Marlin
;TIME:10265
;Filament used: 11.4856m
;Layer height: 0.2
;MINX:4.298
;MINY:15.502
;MINZ:0.2
;MAXX:73.596
;MAXY:77.322
;MAXZ:31
;TARGET_MACHINE.NAME:Creality Ender-3
;Generated with Cura_SteamEngine 5.7.0
M140 S50
M105
M190 S50
M104 S200
M105
M109 S200
M82 ;absolute extrusion mode
; Ender 3 Custom Start G-code
G92 E0 ; Reset Extruder
G28 ; Home all axes
G1 Z2.0 F3000 ; Move Z Axis up little to prevent scratching of Heat Bed
G1 X0.1 Y20 Z0.3 F5000.0 ; Move to start position
G1 X0.1 Y200.0 Z0.3 F1500.0 E15 ; Draw the first line
G1 X0.4 Y200.0 Z0.3 F5000.0 ; Move to side a little
G1 X0.4 Y20 Z0.3 F1500.0 E30 ; Draw the second line
G92 E0 ; Reset Extruder
G1 Z2.0 F3000 ; Move Z Axis up little to prevent scratching of Heat Bed
G1 X5 Y20 Z0.3 F5000.0 ; Move over to prevent blob squish
G92 E0
G92 E0
G1 F2700 E-5
;LAYER_COUNT:155
;LAYER:0
M107
;MESH:Drehrad.stl
G0 F6000 X39.032 Y54.973 Z0.2
;TYPE:WALL-INNER
G1 F2700 E0
G1 F1200 X38.755 Y54.959 E0.00922
G1 X38.51 Y54.878 E0.01781
G1 X31.831 Y51.018 E0.27438
G1 X31.576 Y50.766 E0.28631
G1 X31.486 Y50.607 E0.29238
G1 X31.398 Y50.268 E0.30403
G1 X31.398 Y42.552 E0.56067
G1 X31.489 Y42.205 E0.5726
G1 X31.581 Y42.047 E0.57868
G1 X31.796 Y41.819 E0.5891
G1 X38.51 Y37.946 E0.8469
G1 X38.856 Y37.851 E0.85884
G1 X39.133 Y37.865 E0.86806
G1 X39.378 Y37.946 E0.87664
G1 X46.06 Y41.801 E1.13322
G1 X46.252 Y41.972 E1.14177
G1 X46.406 Y42.212 E1.15126
G1 X46.494 Y42.552 E1.16294
G1 X46.494 Y50.268 E1.41957
G1 X46.403 Y50.615 E1.43151
G1 X46.311 Y50.773 E1.43759
G1 X46.06 Y51.018 E1.44925
G1 X39.378 Y54.878 E1.70591
G1 X39.032 Y54.973 E1.71785
G0 F6000 X38.886 Y54.574
G1 F1200 X38.683 Y54.517 E1.72486
G1 X32.057 Y50.688 E1.97939
G1 X31.904 Y50.537 E1.98654
G1 X31.797 Y50.302 E1.99513
G1 X31.797 Y42.582 E2.2519
G1 X31.907 Y42.279 E2.26262
G1 X32.057 Y42.132 E2.26961
G1 X38.683 Y38.307 E2.52407
G1 X39.002 Y38.25 E2.53485
G1 X39.204 Y38.307 E2.54183
G1 X45.834 Y42.132 E2.79641
G1 X46.016 Y42.327 E2.80528
G1 X46.095 Y42.582 E2.81416
G1 X46.097 Y50.254 E3.06933
G1 X46.016 Y50.493 E3.07773
G1 X45.835 Y50.688 E3.08658
G1 X39.205 Y54.517 E3.34122
G1 X38.886 Y54.574 E3.352
G1 F2700 E-1.648
G0 F6000 X38.711 Y54.877
G0 X39.458 Y55.04
G0 X53.111 Y75.453
G0 X54.482 Y75.414
G1 F2700 E3.352
G1 F1200 X55.133 Y75.15 E3.37537
G1 X55.736 Y74.804 E3.39849
G1 X56.281 Y74.378 E3.4215
G1 X56.776 Y73.867 E3.44516
G1 X57.174 Y73.319 E3.46769
G1 X57.512 Y72.687 E3.49152
G1 X57.748 Y72.039 E3.51446
G1 X57.891 Y71.368 E3.53728
G1 X57.944 Y70.617 E3.56232
G1 X57.946 Y57.884 E3.98582
G1 X58.037 Y57.537 E3.99775
G1 X58.124 Y57.386 E4.00355
G1 X58.38 Y57.133 E4.01552
G1 X69.426 Y50.75 E4.43984
G1 X70.019 Y50.353 E4.46358
G1 X70.542 Y49.88 E4.48703
G1 X70.981 Y49.357 E4.50974
G1 X71.359 Y48.756 E4.53336
G1 X71.637 Y48.129 E4.55617
G1 X71.834 Y47.44 E4.58
G1 X71.928 Y46.765 E4.60267
G1 X71.931 Y46.061 E4.62609
G1 X71.835 Y45.386 E4.64876
G1 X71.637 Y44.698 E4.67257
G1 X71.358 Y44.062 E4.69567
G1 X70.989 Y43.474 E4.71876
G1 X70.545 Y42.944 E4.74176
G1 X70.026 Y42.474 E4.76505
G1 X69.43 Y42.073 E4.78894
G1 X58.352 Y35.673 E5.21446
G1 X58.187 Y35.515 E5.22206
G1 X58.033 Y35.275 E5.23155
G1 X57.946 Y34.936 E5.24319
G1 X57.944 Y22.208 E5.66652
G1 X57.891 Y21.455 E5.69163
G1 X57.752 Y20.791 E5.71419
G1 X57.512 Y20.132 E5.73752
G1 X57.182 Y19.512 E5.76088
G1 X56.775 Y18.952 E5.7839
G1 X56.295 Y18.452 E5.80696
G1 X55.748 Y18.024 E5.83006
G1 X55.135 Y17.673 E5.85355
G1 X54.491 Y17.409 E5.8767
G1 X53.816 Y17.24 E5.89984
G1 X53.13 Y17.167 E5.92279
G1 X52.433 Y17.193 E5.94599
G1 X51.737 Y17.314 E5.96948
G1 X51.067 Y17.53 E5.9929
G1 X50.43 Y17.84 E6.01646
G1 X39.378 Y24.218 E6.44087
G1 X38.949 Y24.336 E6.45567
G1 X38.553 Y24.243 E6.4692
G1 X27.473 Y17.848 E6.8947
G1 X26.823 Y17.53 E6.91877
G1 X26.158 Y17.313 E6.94203
G1 X25.47 Y17.193 E6.96526
G1 X24.774 Y17.167 E6.98842
G1 X24.08 Y17.24 E7.01163
G1 X23.406 Y17.41 E7.03475
G1 X22.762 Y17.667 E7.05782
G1 X22.149 Y18.02 E7.08134
G1 X21.615 Y18.437 E7.10388
G1 X21.116 Y18.953 E7.12775
G1 X20.718 Y19.501 E7.15028
G1 X20.384 Y20.126 E7.17385
G1 X20.144 Y20.782 E7.19708
G1 X20.001 Y21.451 E7.21984
G1 X19.944 Y22.206 E7.24502
G1 X19.942 Y34.94 E7.66855
G1 X19.851 Y35.287 E7.68048
G1 X19.701 Y35.519 E7.68967
G1 X19.508 Y35.69 E7.69825
G1 X8.467 Y42.069 E8.12236
G1 X7.873 Y42.472 E8.14623
G1 X7.344 Y42.947 E8.16988
G1 X6.907 Y43.463 E8.19237
G1 X6.535 Y44.061 E8.21579
G1 X6.255 Y44.695 E8.23885
G1 X6.057 Y45.383 E8.26266
G1 X5.96 Y46.052 E8.28514
G1 X5.96 Y46.759 E8.30866
G1 X6.053 Y47.436 E8.33138
G1 X6.25 Y48.117 E8.35496
G1 X6.534 Y48.758 E8.37828
G1 X6.9 Y49.343 E8.40123
G1 X7.348 Y49.877 E8.42442
G1 X7.862 Y50.346 E8.44756
G1 X8.461 Y50.746 E8.47152
G1 X19.544 Y57.151 E8.89727
G1 X19.764 Y57.386 E8.90797
G1 X19.854 Y57.545 E8.91405
G1 X19.942 Y57.884 E8.9257
G1 X19.944 Y70.613 E9.34907
G1 X19.997 Y71.366 E9.37418
G1 X20.14 Y72.026 E9.39664
G1 X20.377 Y72.681 E9.4198
G1 X20.711 Y73.312 E9.44355
G1 X21.113 Y73.864 E9.46626
G1 X21.593 Y74.364 E9.48932
G1 X22.149 Y74.8 E9.51282
G1 X22.752 Y75.147 E9.53596
G1 X23.401 Y75.411 E9.55926
G1 X24.072 Y75.581 E9.58228
G1 X24.765 Y75.654 E9.60546
G1 X25.462 Y75.631 E9.62865
G1 X26.149 Y75.507 E9.65187
G1 X26.823 Y75.29 E9.67542
G1 X27.46 Y74.977 E9.69903
G1 X38.51 Y68.602 E10.12333
G1 X38.939 Y68.484 E10.13813
G1 X39.335 Y68.577 E10.15166
G1 X50.42 Y74.973 E10.57732
G1 X51.067 Y75.291 E10.6013
G1 X51.738 Y75.51 E10.62477
G1 X52.413 Y75.627 E10.64756
G1 X53.118 Y75.653 E10.67102
G1 X53.814 Y75.58 E10.6943
G1 X54.482 Y75.414 E10.71719
G0 F6000 X54.606 Y75.796
G1 F1200 X55.308 Y75.511 E10.74239
G1 X55.96 Y75.136 E10.76741
G1 X56.549 Y74.676 E10.79226
G1 X57.083 Y74.125 E10.81779
G1 X57.514 Y73.532 E10.84217
G1 X57.878 Y72.85 E10.86788
G1 X58.133 Y72.15 E10.89266
G1 X58.288 Y71.424 E10.91735
G1 X58.344 Y70.631 E10.94379
G1 X58.345 Y57.914 E11.36676
G1 X58.455 Y57.611 E11.37748
G1 X58.605 Y57.464 E11.38447
G1 X69.638 Y51.09 E11.80826
G1 X70.265 Y50.669 E11.83338
G1 X70.831 Y50.158 E11.85874
G1 X71.305 Y49.593 E11.88327
G1 X71.713 Y48.945 E11.90874
G1 X72.014 Y48.266 E11.93345
G1 X72.227 Y47.523 E11.95915
G1 X72.328 Y46.793 E11.98366
G1 X72.331 Y46.034 E12.00891
G1 X72.227 Y45.302 E12.0335
G1 X72.014 Y44.561 E12.05914
G1 X71.712 Y43.874 E12.0841
G1 X71.313 Y43.238 E12.10907
G1 X70.834 Y42.666 E12.13389
G1 X70.273 Y42.158 E12.15906
G1 X69.642 Y41.734 E12.18435
G1 X58.605 Y35.356 E12.60832
G1 X58.397 Y35.109 E12.61906
G1 X58.345 Y34.906 E12.62603
G1 X58.344 Y22.194 E13.04884
G1 X58.288 Y21.4 E13.07531
G1 X58.137 Y20.681 E13.09975
G1 X57.878 Y19.969 E13.12495
G1 X57.522 Y19.299 E13.15018
G1 X57.082 Y18.694 E13.17506
G1 X56.564 Y18.155 E13.19993
G1 X55.972 Y17.692 E13.22492
G1 X55.311 Y17.313 E13.25027
G1 X54.616 Y17.028 E13.27525
G1 X53.886 Y16.845 E13.30028
G1 X53.143 Y16.766 E13.32513
G1 X52.391 Y16.795 E13.35016
G1 X51.641 Y16.924 E13.37547
G1 X50.917 Y17.158 E13.40078
G1 X50.242 Y17.487 E13.42576
G1 X39.204 Y23.857 E13.84963
G1 X38.886 Y23.914 E13.86037
G1 X38.683 Y23.857 E13.86739
G1 X27.661 Y17.494 E14.29068
G1 X26.974 Y17.158 E14.31612
G1 X26.254 Y16.924 E14.3413
G1 X25.512 Y16.795 E14.36635
G1 X24.761 Y16.766 E14.39135
G1 X24.01 Y16.845 E14.41646
G1 X23.282 Y17.028 E14.44143
G1 X22.587 Y17.306 E14.46633
G1 X21.925 Y17.687 E14.49173
G1 X21.347 Y18.139 E14.51613
G1 X20.809 Y18.695 E14.54187
G1 X20.378 Y19.288 E14.56625
G1 X20.018 Y19.962 E14.59166
G1 X19.758 Y20.671 E14.61678
G1 X19.604 Y21.394 E14.64137
G1 X19.544 Y22.191 E14.66795
G1 X19.543 Y34.91 E15.09099
G1 X19.433 Y35.213 E15.10171
G1 X19.283 Y35.36 E15.10869
G1 X8.255 Y41.729 E15.53226
G1 X7.626 Y42.155 E15.55753
G1 X7.056 Y42.667 E15.58301
G1 X6.583 Y43.227 E15.60739
G1 X6.18 Y43.874 E15.63275
G1 X5.878 Y44.558 E15.65761
G1 X5.665 Y45.299 E15.68326
G1 X5.56 Y46.023 E15.70759
G1 X5.56 Y46.787 E15.733
G1 X5.661 Y47.519 E15.75758
G1 X5.874 Y48.254 E15.78303
G1 X6.18 Y48.946 E15.8082
G1 X6.575 Y49.578 E15.83298
G1 X7.058 Y50.155 E15.85801
G1 X7.615 Y50.662 E15.88306
G1 X8.25 Y51.086 E15.90846
G1 X19.283 Y57.464 E16.33232
G1 X19.436 Y57.615 E16.33947
G1 X19.543 Y57.85 E16.34806
G1 X19.544 Y70.627 E16.77302
G1 X19.6 Y71.423 E16.79956
G1 X19.754 Y72.137 E16.82386
G1 X20.01 Y72.844 E16.84887
G1 X20.371 Y73.525 E16.8745
G1 X20.806 Y74.121 E16.89904
G1 X21.324 Y74.661 E16.92393
G1 X21.925 Y75.133 E16.94935
G1 X22.576 Y75.507 E16.97432
G1 X23.276 Y75.792 E16.99946
G1 X24.002 Y75.975 E17.02436
G1 X24.75 Y76.054 E17.04938
G1 X25.504 Y76.029 E17.07447
G1 X26.246 Y75.896 E17.09954
G1 X26.974 Y75.662 E17.12498
G1 X27.649 Y75.33 E17.14999
G1 X38.683 Y68.963 E17.5737
G1 X39.002 Y68.906 E17.58448
G1 X39.205 Y68.963 E17.59149
G1 X50.231 Y75.326 E18.01491
G1 X50.915 Y75.662 E18.04025
G1 X51.641 Y75.9 E18.06566
G1 X52.371 Y76.025 E18.0903
G1 X53.131 Y76.054 E18.11559
G1 X53.883 Y75.975 E18.14074
G1 X54.606 Y75.796 E18.16552
G0 F6000 X54.73 Y76.177
;TYPE:WALL-OUTER
G1 F1200 X55.484 Y75.871 E18.19258
G1 X56.184 Y75.469 E18.21943
G1 X56.817 Y74.974 E18.24615
G1 X57.39 Y74.383 E18.27353
G1 X57.854 Y73.745 E18.29977
G1 X58.244 Y73.014 E18.32733
G1 X58.519 Y72.26 E18.35402
G1 X58.685 Y71.48 E18.38055
G1 X58.744 Y70.645 E18.40839
G1 X58.749 Y57.911 E18.83192
G1 X58.843 Y57.786 E18.83712
G1 X69.85 Y51.43 E19.25987
G1 X70.512 Y50.985 E19.2864
G1 X71.119 Y50.436 E19.31362
G1 X71.629 Y49.829 E19.33999
G1 X72.067 Y49.133 E19.36734
G1 X72.391 Y48.403 E19.39391
G1 X72.619 Y47.606 E19.42148
G1 X72.728 Y46.821 E19.44784
G1 X72.731 Y46.006 E19.47495
G1 X72.619 Y45.218 E19.50142
G1 X72.391 Y44.425 E19.52886
G1 X72.066 Y43.686 E19.55571
G1 X71.637 Y43.002 E19.58257
G1 X71.123 Y42.388 E19.6092
G1 X70.52 Y41.842 E19.63626
G1 X69.854 Y41.394 E19.66295
G1 X58.831 Y35.026 E20.08636
G1 X58.749 Y34.909 E20.09111
G1 X58.744 Y22.18 E20.51448
G1 X58.685 Y21.344 E20.54236
G1 X58.523 Y20.571 E20.56863
G1 X58.244 Y19.806 E20.59571
G1 X57.862 Y19.087 E20.62279
G1 X57.39 Y18.437 E20.64951
G1 X56.833 Y17.857 E20.67625
G1 X56.196 Y17.359 E20.70315
G1 X55.487 Y16.953 E20.73032
G1 X54.741 Y16.647 E20.75714
G1 X53.956 Y16.45 E20.78406
G1 X53.157 Y16.365 E20.81078
G1 X52.349 Y16.396 E20.83768
G1 X51.545 Y16.535 E20.86481
G1 X50.767 Y16.786 E20.892
G1 X50.054 Y17.133 E20.91838
G1 X39.031 Y23.497 E21.34172
G1 X38.888 Y23.509 E21.34649
G1 X27.849 Y17.141 E21.77036
G1 X27.124 Y16.786 E21.79721
G1 X26.351 Y16.535 E21.82424
G1 X25.554 Y16.396 E21.85115
G1 X24.747 Y16.365 E21.87801
G1 X23.94 Y16.45 E21.905
G1 X23.158 Y16.647 E21.93182
G1 X22.412 Y16.945 E21.95854
G1 X21.701 Y17.355 E21.98584
G1 X21.079 Y17.841 E22.01209
G1 X20.502 Y18.437 E22.03968
G1 X20.038 Y19.075 E22.06592
G1 X19.652 Y19.798 E22.09318
G1 X19.373 Y20.56 E22.12017
G1 X19.207 Y21.337 E22.1466
G1 X19.144 Y22.176 E22.17458
G1 X19.139 Y34.913 E22.59822
G1 X19.057 Y35.03 E22.60297
G1 X8.043 Y41.39 E23.02598
G1 X7.38 Y41.839 E23.05262
G1 X6.768 Y42.388 E23.07996
G1 X6.259 Y42.991 E23.10621
G1 X5.826 Y43.686 E23.13344
G1 X5.501 Y44.421 E23.16017
G1 X5.273 Y45.215 E23.18765
G1 X5.16 Y45.995 E23.21386
G1 X5.16 Y46.814 E23.2411
G1 X5.269 Y47.602 E23.26756
G1 X5.497 Y48.391 E23.29488
G1 X5.826 Y49.134 E23.3219
G1 X6.251 Y49.814 E23.34857
G1 X6.769 Y50.433 E23.37542
G1 X7.368 Y50.978 E23.40235
G1 X8.038 Y51.426 E23.42916
G1 X19.057 Y57.794 E23.85245
G1 X19.139 Y57.911 E23.85721
G1 X19.144 Y70.641 E24.28061
G1 X19.203 Y71.479 E24.30855
G1 X19.369 Y72.248 E24.33471
G1 X19.644 Y73.006 E24.36153
G1 X20.031 Y73.737 E24.38904
G1 X20.498 Y74.379 E24.41545
G1 X21.055 Y74.959 E24.44219
G1 X21.701 Y75.465 E24.46949
G1 X22.4 Y75.867 E24.49631
G1 X23.151 Y76.173 E24.52328
G1 X23.932 Y76.37 E24.55007
G1 X24.736 Y76.455 E24.57696
G1 X25.546 Y76.428 E24.60391
G1 X26.343 Y76.285 E24.63085
G1 X27.124 Y76.034 E24.65813
G1 X27.837 Y75.683 E24.68456
G1 X38.857 Y69.323 E25.10775
G1 X39 Y69.311 E25.11252
G1 X50.043 Y75.679 E25.53651
G1 X50.764 Y76.034 E25.56324
G1 X51.545 Y76.289 E25.59056
G1 X52.329 Y76.424 E25.61702
G1 X53.145 Y76.455 E25.64418
G1 X53.953 Y76.37 E25.67121
G1 X54.73 Y76.177 E25.69783
G1 F2700 E20.69783
G0 F6000 X54.516 Y75.511
G0 X53.111 Y75.453
G0 X40.856 Y54.231
G0 X39.38 Y54.764
G0 X39.031 Y54.157
G1 F2700 E25.69783
G1 F1200 X38.888 Y54.169 E25.70261
G1 X32.283 Y50.358 E25.95624
G1 X32.196 Y50.208 E25.962
G1 X32.196 Y42.612 E26.21465
G1 X32.266 Y42.471 E26.21988
G1 X38.857 Y38.667 E26.47299
G1 X39 Y38.655 E26.47776
G1 X45.609 Y42.462 E26.73144
G1 X45.691 Y42.579 E26.73619
G1 X45.697 Y50.226 E26.99053
G1 X45.597 Y50.366 E26.99626
G1 X39.031 Y54.157 E27.24843
G1 F2700 E22.24843
G0 F6000 X39.38 Y54.764
G0 X41.9 Y53.628
G0 X53.111 Y75.453
G0 X54.429 Y75.325
G0 X54.366 Y75.069
;TYPE:SKIN
G1 F2700 E27.24843
G1 F1200 X53.749 Y75.222 E27.26957
G1 X53.104 Y75.291 E27.29115
G1 X52.453 Y75.268 E27.31281
G1 X51.821 Y75.157 E27.33416
G1 X51.2 Y74.954 E27.35589
G1 X50.579 Y74.647 E27.37893
G1 X39.492 Y68.252 E27.80463
G1 X39.199 Y68.166 E27.81478
G1 X38.826 Y68.148 E27.8272
G1 X38.357 Y68.276 E27.84337
G1 X27.297 Y74.651 E28.26796
G1 X26.684 Y74.954 E28.29071
G1 X26.051 Y75.157 E28.31282
G1 X25.43 Y75.268 E28.3338
G1 X24.776 Y75.291 E28.35556
G1 X24.136 Y75.222 E28.37697
G1 X23.515 Y75.065 E28.39828
G1 X22.909 Y74.819 E28.42003
G1 X22.353 Y74.497 E28.4414
G1 X21.831 Y74.091 E28.4634
G1 X21.386 Y73.627 E28.48478
G1 X21.018 Y73.125 E28.50548
G1 X20.704 Y72.53 E28.52786
G1 X20.485 Y71.924 E28.54929
G1 X20.351 Y71.323 E28.56977
G1 X20.305 Y70.589 E28.59423
G1 X20.302 Y57.801 E29.01956
G1 X20.189 Y57.361 E29.03467
G1 X19.882 Y56.974 E29.0511
G1 X19.713 Y56.838 E29.05831
G1 X8.642 Y50.434 E29.4837
G1 X8.084 Y50.061 E29.50603
G1 X7.613 Y49.633 E29.5272
G1 X7.187 Y49.122 E29.54932
G1 X6.854 Y48.593 E29.57011
G1 X6.585 Y47.983 E29.59229
G1 X6.405 Y47.358 E29.61392
G1 X6.32 Y46.742 E29.6346
G1 X6.32 Y46.071 E29.65692
G1 X6.409 Y45.462 E29.67739
G1 X6.593 Y44.817 E29.6997
G1 X6.858 Y44.222 E29.72136
G1 X7.195 Y43.679 E29.74262
G1 X7.604 Y43.196 E29.76367
G1 X8.088 Y42.758 E29.78538
G1 X8.667 Y42.366 E29.80864
G1 X19.743 Y35.976 E30.23394
G1 X19.972 Y35.75 E30.24464
G1 X20.182 Y35.434 E30.25726
G1 X20.299 Y34.973 E30.27308
G1 X20.304 Y22.228 E30.69698
G1 X20.359 Y21.481 E30.72189
G1 X20.485 Y20.888 E30.74205
G1 X20.711 Y20.279 E30.76366
G1 X21.031 Y19.679 E30.78627
G1 X21.382 Y19.193 E30.80621
G1 X21.863 Y18.697 E30.82919
G1 X22.341 Y18.323 E30.84938
G1 X22.924 Y17.985 E30.87179
G1 X23.51 Y17.751 E30.89278
G1 X24.143 Y17.594 E30.91447
G1 X24.783 Y17.525 E30.93588
G1 X25.426 Y17.552 E30.95729
G1 X26.072 Y17.663 E30.97909
G1 X26.688 Y17.862 E31.00062
G1 X27.301 Y18.165 E31.02336
G1 X38.392 Y24.564 E31.44925
G1 X38.668 Y24.647 E31.45883
G1 X39.072 Y24.667 E31.47228
G1 X39.527 Y24.54 E31.488
G1 X50.606 Y18.153 E31.91333
G1 X51.196 Y17.866 E31.93516
G1 X51.82 Y17.663 E31.95698
G1 X52.474 Y17.552 E31.97904
G1 X53.117 Y17.525 E32.00045
G1 X53.752 Y17.594 E32.02169
G1 X54.373 Y17.751 E32.043
G1 X54.98 Y17.997 E32.06478
G1 X55.547 Y18.323 E32.08654
G1 X56.049 Y18.717 E32.10776
G1 X56.486 Y19.173 E32.12877
G1 X56.87 Y19.699 E32.15043
G1 X57.184 Y20.286 E32.17257
G1 X57.403 Y20.887 E32.19384
G1 X57.529 Y21.5 E32.21466
G1 X57.584 Y22.232 E32.23907
G1 X57.587 Y34.981 E32.66311
G1 X57.702 Y35.42 E32.6782
G1 X57.845 Y35.661 E32.68752
G1 X58.167 Y35.976 E32.7025
G1 X69.245 Y42.382 E33.12813
G1 X69.804 Y42.758 E33.15054
G1 X70.275 Y43.187 E33.17173
G1 X70.697 Y43.69 E33.19356
G1 X71.034 Y44.231 E33.21476
G1 X71.295 Y44.817 E33.2361
G1 X71.479 Y45.47 E33.25866
G1 X71.568 Y46.079 E33.27913
G1 X71.568 Y46.741 E33.30115
G1 X71.479 Y47.354 E33.32175
G1 X71.299 Y47.999 E33.34403
G1 X71.039 Y48.581 E33.36523
G1 X70.681 Y49.153 E33.38767
G1 X70.283 Y49.624 E33.40818
G1 X69.796 Y50.066 E33.43006
G1 X69.242 Y50.438 E33.45225
G1 X58.191 Y56.826 E33.8768
G1 X57.91 Y57.071 E33.8892
G1 X57.762 Y57.275 E33.89758
G1 X57.62 Y57.641 E33.91064
G1 X57.584 Y57.851 E33.91772
G1 X57.584 Y70.588 E34.34136
G1 X57.529 Y71.328 E34.36604
G1 X57.403 Y71.933 E34.38659
G1 X57.18 Y72.542 E34.40816
G1 X56.866 Y73.129 E34.4303
G1 X56.506 Y73.622 E34.45061
G1 X56.029 Y74.114 E34.4734
G1 X55.535 Y74.501 E34.49427
G1 X54.976 Y74.823 E34.51573
