;FLAVOR:Marlin
;TIME:10817
;Filament used: 12.5866m
;Layer height: 0.2
;MINX:5.208
;MINY:15
;MINZ:0.2
;MAXX:100.663
;MAXY:74.33
;MAXZ:10
;TARGET_MACHINE.NAME:Creality Ender-3
;Generated with Cura_SteamEngine 5.7.0
M140 S50
M105
M190 S50
M104 S200
M105
M109 S200
M82 ;absolute extrusion mode
; Ender 3 Custom Start G-code
G92 E0 ; Reset Extruder
G28 ; Home all axes
G1 Z2.0 F3000 ; Move Z Axis up little to prevent scratching of Heat Bed
G1 X0.1 Y20 Z0.3 F5000.0 ; Move to start position
G1 X0.1 Y200.0 Z0.3 F1500.0 E15 ; Draw the first line
G1 X0.4 Y200.0 Z0.3 F5000.0 ; Move to side a little
G1 X0.4 Y20 Z0.3 F1500.0 E30 ; Draw the second line
G92 E0 ; Reset Extruder
G1 Z2.0 F3000 ; Move Z Axis up little to prevent scratching of Heat Bed
G1 X5 Y20 Z0.3 F5000.0 ; Move over to prevent blob squish
G92 E0
G92 E0
G1 F2700 E-5
;LAYER_COUNT:50
;LAYER:0
M107
;MESH:RaspPiPlatte.stl
G0 F6000 X14.018 Y47.783 Z0.2
;TYPE:WALL-INNER
G1 F2700 E0
G1 F1200 X13.255 Y48.118 E0.02772
G1 X12.402 Y48.266 E0.05651
G1 X11.558 Y48.208 E0.08465
G1 X10.783 Y47.978 E0.11154
G1 X10.057 Y47.558 E0.13943
G1 X9.443 Y46.979 E0.1675
G1 X8.986 Y46.28 E0.19528
G1 X8.702 Y45.5 E0.22289
G1 X8.6 Y44.664 E0.2509
G1 X8.7 Y43.83 E0.27884
G1 X8.986 Y43.048 E0.30653
G1 X9.447 Y42.346 E0.33446
G1 X10.049 Y41.773 E0.36211
G1 X10.781 Y41.351 E0.39021
G1 X11.579 Y41.111 E0.41793
G1 X12.435 Y41.066 E0.44644
G1 X13.256 Y41.211 E0.47416
G1 X14.019 Y41.545 E0.50187
G1 X14.699 Y42.057 E0.53018
G1 X15.213 Y42.673 E0.55686
G1 X15.592 Y43.42 E0.58472
G1 X15.792 Y44.252 E0.61318
G1 X15.792 Y45.073 E0.64049
G1 X15.597 Y45.901 E0.66878
G1 X15.212 Y46.657 E0.697
G1 X14.693 Y47.279 E0.72394
G1 X14.018 Y47.783 E0.75196
G0 F6000 X13.814 Y47.433
G1 F1200 X13.137 Y47.733 E0.77659
G1 X12.389 Y47.863 E0.80184
G1 X11.659 Y47.816 E0.82617
G1 X10.944 Y47.609 E0.85093
G1 X10.294 Y47.233 E0.87591
G1 X9.752 Y46.719 E0.90075
G1 X9.348 Y46.104 E0.92522
G1 X9.092 Y45.407 E0.94992
G1 X9.008 Y44.668 E0.97466
G1 X9.092 Y43.923 E0.99959
G1 X9.346 Y43.228 E1.0242
G1 X9.757 Y42.603 E1.04908
G1 X10.287 Y42.098 E1.07343
G1 X10.943 Y41.72 E1.09861
G1 X11.65 Y41.512 E1.12313
G1 X12.379 Y41.468 E1.14742
G1 X13.135 Y41.594 E1.17291
G1 X13.812 Y41.889 E1.19747
G1 X14.406 Y42.332 E1.22212
G1 X14.886 Y42.905 E1.24698
G1 X15.208 Y43.549 E1.27093
G1 X15.392 Y44.286 E1.29619
G1 X15.391 Y45.013 E1.32037
G1 X15.219 Y45.761 E1.3459
G1 X14.872 Y46.437 E1.37117
G1 X14.417 Y46.981 E1.39476
G1 X13.814 Y47.433 E1.41982
G1 F2700 E-3.58018
G0 F6000 X13.995 Y47.677
G0 X15.378 Y46.734
G0 X29.317 Y47.107
G0 X30.846 Y47.827
G0 X31.612 Y48.058
G0 X32.258 Y48.095
G0 X34.011 Y47.787
G1 F2700 E1.41982
G1 F1200 X33.253 Y48.118 E1.44733
G1 X32.408 Y48.266 E1.47587
G1 X31.586 Y48.214 E1.50326
G1 X30.781 Y47.977 E1.53117
G1 X30.064 Y47.562 E1.55873
G1 X29.433 Y46.964 E1.58764
G1 X28.994 Y46.293 E1.61431
G1 X28.703 Y45.498 E1.64247
G1 X28.601 Y44.681 E1.66985
G1 X28.705 Y43.818 E1.69876
G1 X28.996 Y43.03 E1.7267
G1 X29.437 Y42.361 E1.75335
G1 X30.028 Y41.791 E1.78066
G1 X30.776 Y41.354 E1.80948
G1 X31.577 Y41.113 E1.8373
G1 X32.381 Y41.064 E1.86409
G1 X33.253 Y41.209 E1.89349
G1 X34.012 Y41.542 E1.92106
G1 X34.698 Y42.055 E1.94955
G1 X35.225 Y42.688 E1.97694
G1 X35.592 Y43.417 E2.00409
G1 X35.791 Y44.252 E2.03264
G1 X35.792 Y45.065 E2.05968
G1 X35.593 Y45.91 E2.08855
G1 X35.212 Y46.656 E2.11641
G1 X34.683 Y47.288 E2.14382
G1 X34.011 Y47.787 E2.17166
G0 F6000 X33.817 Y47.436
G1 F1200 X33.123 Y47.737 E2.19682
G1 X32.394 Y47.86 E2.22141
G1 X31.646 Y47.818 E2.24633
G1 X30.92 Y47.594 E2.2716
G1 X30.303 Y47.234 E2.29536
G1 X29.766 Y46.73 E2.31986
G1 X29.352 Y46.111 E2.34462
G1 X29.095 Y45.414 E2.36933
G1 X29.004 Y44.677 E2.39403
G1 X29.092 Y43.929 E2.41908
G1 X29.353 Y43.215 E2.44437
G1 X29.759 Y42.6 E2.46888
G1 X30.274 Y42.113 E2.49245
G1 X30.938 Y41.722 E2.51808
G1 X31.645 Y41.51 E2.54263
G1 X32.39 Y41.468 E2.56745
G1 X33.123 Y41.591 E2.59217
G1 X33.817 Y41.892 E2.61733
G1 X34.416 Y42.346 E2.64233
G1 X34.885 Y42.904 E2.66657
G1 X35.209 Y43.55 E2.69061
G1 X35.392 Y44.289 E2.71593
G1 X35.392 Y45.033 E2.74067
G1 X35.209 Y45.778 E2.76619
G1 X34.885 Y46.424 E2.79023
G1 X34.416 Y46.982 E2.81447
G1 X33.817 Y47.436 E2.83947
G1 F2700 E-2.16053
G0 F6000 X33.995 Y47.677
G0 X35.372 Y46.748
G0 X35.372 Y72.464
G0 X89.408 Y72.664
G1 F2700 E2.83947
G1 F1200 X89.41 Y62.28 E3.18484
G1 X89.527 Y61.909 E3.19778
G1 X89.834 Y61.6 E3.21227
G1 X90.123 Y61.461 E3.22293
G1 X90.326 Y61.423 E3.2298
G1 X99.008 Y61.42 E3.51857
G1 X99.008 Y27.908 E4.63318
G1 X90.326 Y27.905 E4.92195
G1 X89.994 Y27.833 E4.93325
G1 X89.727 Y27.642 E4.94416
G1 X89.583 Y27.475 E4.9515
G1 X89.465 Y27.243 E4.96016
G1 X89.41 Y26.975 E4.96926
G1 X89.408 Y16.664 E5.3122
G1 X12.408 Y16.664 E7.87323
G1 X12.406 Y27.056 E8.21887
G1 X12.297 Y27.368 E8.22986
G1 X12.166 Y27.562 E8.23765
G1 X11.983 Y27.727 E8.24584
G1 X11.774 Y27.84 E8.25375
G1 X11.526 Y27.908 E8.2623
G1 X6.008 Y27.908 E8.44583
G1 X6.008 Y61.42 E9.56044
G1 X11.522 Y61.42 E9.74384
G1 X11.775 Y61.489 E9.75256
G1 X11.983 Y61.601 E9.76042
G1 X12.166 Y61.766 E9.76861
G1 X12.34 Y62.056 E9.77986
G1 X12.406 Y62.349 E9.78985
G1 X12.408 Y72.664 E10.13293
G1 X89.408 Y72.664 E12.69396
G0 F6000 X89.808 Y73.064
G1 F1200 X89.809 Y62.379 E13.04934
G1 X89.892 Y62.112 E13.05864
G1 X90.079 Y61.917 E13.06763
G1 X90.359 Y61.821 E13.07747
G1 X99.408 Y61.82 E13.37845
G1 X99.408 Y27.508 E14.51967
G1 X90.359 Y27.507 E14.82064
G1 X90.146 Y27.449 E14.82798
G1 X90.011 Y27.359 E14.83338
G1 X89.861 Y27.157 E14.84175
G1 X89.809 Y26.949 E14.84888
G1 X89.808 Y16.264 E15.20426
G1 X12.008 Y16.264 E17.7919
G1 X12.007 Y26.951 E18.14735
G1 X11.956 Y27.155 E18.15434
G1 X11.726 Y27.418 E18.16597
G1 X11.476 Y27.508 E18.1748
G1 X5.608 Y27.508 E18.36997
G1 X5.608 Y61.82 E19.51119
G1 X11.476 Y61.82 E19.70637
G1 X11.726 Y61.91 E19.7152
G1 X11.941 Y62.143 E19.72575
G1 X12.007 Y62.377 E19.73383
G1 X12.008 Y73.064 E20.08929
G1 X89.808 Y73.064 E22.67692
G0 F6000 X90.208 Y73.464
;TYPE:WALL-OUTER
G1 F1200 X90.209 Y62.394 E23.04511
G1 X90.239 Y62.311 E23.04805
G1 X90.341 Y62.22 E23.0526
G1 X99.808 Y62.22 E23.36747
G1 X99.808 Y27.108 E24.5353
G1 X90.343 Y27.108 E24.85011
G1 X90.246 Y27.027 E24.85431
G1 X90.208 Y26.922 E24.85802
G1 X90.208 Y15.864 E25.22581
G1 X11.608 Y15.864 E27.84006
G1 X11.607 Y26.936 E28.20832
G1 X11.573 Y27.023 E28.21142
G1 X11.468 Y27.106 E28.21587
G1 X5.208 Y27.108 E28.42408
G1 X5.208 Y62.22 E29.59191
G1 X11.468 Y62.222 E29.80012
G1 X11.605 Y62.38 E29.80708
G1 X11.608 Y73.464 E30.17573
G1 X90.208 Y73.464 E32.78998
G1 F2700 E27.78998
G0 F6000 X89.94 Y73.195
G0 X33.291 Y72.464
G0 X32.419 Y48.447
G0 X33.291 Y47.991
G0 X33.014 Y47.348
G1 F2700 E32.78998
G1 F1200 X32.395 Y47.458 E32.81089
G1 X31.736 Y47.423 E32.83284
G1 X31.112 Y47.241 E32.85446
G1 X30.555 Y46.922 E32.87581
G1 X30.066 Y46.465 E32.89807
G1 X29.716 Y45.936 E32.91917
G1 X29.487 Y45.318 E32.94109
G1 X29.408 Y44.685 E32.9623
G1 X29.483 Y44.025 E32.9844
G1 X29.72 Y43.385 E33.0071
G1 X30.062 Y42.868 E33.02771
G1 X30.517 Y42.431 E33.0487
G1 X31.093 Y42.095 E33.07087
G1 X31.705 Y41.909 E33.09215
G1 X32.368 Y41.868 E33.11424
G1 X32.991 Y41.974 E33.13526
G1 X33.599 Y42.233 E33.15724
G1 X34.127 Y42.623 E33.17907
G1 X34.545 Y43.122 E33.20072
G1 X34.841 Y43.708 E33.22256
G1 X34.991 Y44.331 E33.24387
G1 X34.992 Y44.981 E33.26549
G1 X34.841 Y45.62 E33.28733
G1 X34.545 Y46.206 E33.30917
G1 X34.127 Y46.705 E33.33082
G1 X33.619 Y47.083 E33.35188
G1 X33.014 Y47.348 E33.37385
G1 F2700 E28.37385
G0 F6000 X33.291 Y47.991
G0 X32.41 Y48.104
G0 X31.612 Y48.058
G0 X30.992 Y47.871
G0 X29.317 Y47.107
G0 X15.378 Y46.734
G0 X14.037 Y47.645
G0 X13.62 Y47.083
G1 F2700 E33.37385
G1 F1200 X13.015 Y47.348 E33.39581
G1 X12.395 Y47.458 E33.41676
G1 X11.726 Y47.422 E33.43904
G1 X11.079 Y47.225 E33.46154
G1 X10.555 Y46.922 E33.48167
G1 X10.078 Y46.478 E33.50334
G1 X9.72 Y45.942 E33.52478
G1 X9.482 Y45.299 E33.54758
G1 X9.408 Y44.668 E33.56872
G1 X9.481 Y44.04 E33.58974
G1 X9.7 Y43.427 E33.61139
G1 X10.052 Y42.882 E33.63297
G1 X10.552 Y42.406 E33.65593
G1 X11.122 Y42.084 E33.67771
G1 X11.718 Y41.906 E33.6984
G1 X12.391 Y41.87 E33.72081
G1 X13.015 Y41.98 E33.74189
G1 X13.61 Y42.239 E33.76347
G1 X14.124 Y42.62 E33.78475
G1 X14.544 Y43.12 E33.80647
G1 X14.838 Y43.7 E33.8281
G1 X14.99 Y44.328 E33.84959
G1 X14.992 Y44.981 E33.87131
G1 X14.843 Y45.614 E33.89294
G1 X14.551 Y46.197 E33.91462
G1 X14.124 Y46.708 E33.93677
G1 X13.62 Y47.083 E33.95766
G1 F2700 E28.95766
G0 F6000 X14.037 Y47.645
G0 X15.378 Y46.734
G0 X15.378 Y72.464
G0 X89.048 Y72.564
G0 X89.048 Y72.304
;TYPE:SKIN
G1 F2700 E33.95766
G1 F1200 X12.768 Y72.304 E36.49475
G1 X12.764 Y62.317 E36.82692
G1 X12.713 Y62.041 E36.83625
G1 X12.583 Y61.737 E36.84725
G1 X12.377 Y61.465 E36.8586
G1 X12.134 Y61.267 E36.86902
G1 X11.72 Y61.092 E36.88397
G1 X11.421 Y61.061 E36.89397
G1 X6.368 Y61.06 E37.06203
G1 X6.368 Y28.268 E38.1527
G1 X11.574 Y28.266 E38.32585
G1 X11.91 Y28.169 E38.33748
G1 X12.307 Y27.958 E38.35244
G1 X12.588 Y27.584 E38.368
G1 X12.729 Y27.23 E38.38067
G1 X12.764 Y27 E38.38841
G1 X12.768 Y17.024 E38.72021
G1 X89.048 Y17.024 E41.25729
G1 X89.048 Y26.999 E41.58906
G1 X89.144 Y27.463 E41.60482
G1 X89.373 Y27.791 E41.61813
G1 X89.593 Y28.001 E41.62824
G1 X90.001 Y28.205 E41.64342
G1 X90.287 Y28.264 E41.65313
G1 X98.648 Y28.268 E41.93122
G1 X98.648 Y61.06 E43.02188
G1 X90.295 Y61.06 E43.29971
G1 X89.939 Y61.141 E43.31185
G1 X89.702 Y61.252 E43.32055
G1 X89.391 Y61.513 E43.33406
G1 X89.141 Y61.859 E43.34825
G1 X89.049 Y62.312 E43.36363
G1 X89.048 Y72.304 E43.69596
G1 F2700 E38.69596
G0 F6000 X89.048 Y72.564
G0 X33.275 Y72.464
G0 X32.419 Y48.447
G0 X33.275 Y48.218
G0 X33.358 Y48.464
G1 F2700 E43.69596
G1 F1200 X34.198 Y48.093 E43.72651
G1 X34.938 Y47.538 E43.75727
G1 X35.527 Y46.838 E43.7877
G1 X35.937 Y46.016 E43.81825
G1 X36.152 Y45.111 E43.84919
G1 X36.148 Y44.196 E43.87962
G1 X35.937 Y43.316 E43.90972
G1 X35.527 Y42.494 E43.94027
G1 X34.918 Y41.766 E43.97184
G1 X34.183 Y41.221 E44.00228
G1 X33.346 Y40.856 E44.03265
G1 X32.431 Y40.7 E44.06352
G1 X31.516 Y40.753 E44.094
G1 X30.646 Y41.011 E44.12418
G1 X29.835 Y41.483 E44.15539
G1 X29.168 Y42.115 E44.18596
G1 X28.663 Y42.878 E44.21639
G1 X28.348 Y43.744 E44.24704
G1 X28.24 Y44.68 E44.27838
G1 X28.348 Y45.596 E44.30905
G1 X28.674 Y46.464 E44.33989
G1 X29.184 Y47.227 E44.37042
G1 X29.841 Y47.844 E44.40039
G1 X30.638 Y48.309 E44.43108
G1 X31.512 Y48.567 E44.46139
G1 X32.443 Y48.623 E44.49241
G1 X33.358 Y48.464 E44.5233
G1 F2700 E39.5233
G0 F6000 X33.275 Y48.218
G0 X31.928 Y48.088
G0 X29.96 Y47.711
G0 X15.378 Y46.734
G0 X14.069 Y47.869
G0 X14.193 Y48.098
G1 F2700 E44.5233
G1 F1200 X14.902 Y47.577 E44.55257
G1 X15.533 Y46.822 E44.58529
G1 X15.94 Y46.01 E44.6155
G1 X16.148 Y45.128 E44.64564
G1 X16.149 Y44.199 E44.67654
G1 X15.932 Y43.299 E44.70733
G1 X15.517 Y42.472 E44.73811
G1 X14.924 Y41.769 E44.7687
G1 X14.202 Y41.231 E44.79865
G1 X13.341 Y40.86 E44.82983
G1 X12.465 Y40.704 E44.85942
G1 X11.529 Y40.752 E44.8906
G1 X10.79 Y40.968 E44.9162
G1 X10.52 Y41.084 E44.92598
G1 X9.972 Y41.398 E44.94698
G1 X9.714 Y41.594 E44.95776
G1 X9.282 Y42.002 E44.97752
G1 X9.076 Y42.249 E44.98822
G1 X8.752 Y42.741 E45.00782
G1 X8.607 Y43.027 E45.01848
G1 X8.403 Y43.591 E45.03843
G1 X8.333 Y43.881 E45.04835
G1 X8.24 Y44.668 E45.07471
G1 X8.345 Y45.564 E45.10471
G1 X8.617 Y46.323 E45.13153
G1 X8.737 Y46.559 E45.14034
G1 X9.072 Y47.074 E45.16077
G1 X9.267 Y47.306 E45.17085
G1 X9.718 Y47.734 E45.19153
G1 X9.97 Y47.921 E45.20197
G1 X10.494 Y48.229 E45.22218
G1 X10.774 Y48.349 E45.23231
G1 X11.506 Y48.564 E45.25769
G1 X12.446 Y48.622 E45.28901
G1 X13.358 Y48.463 E45.3198
G1 X14.193 Y48.098 E45.35011
G1 F2700 E40.35011
G0 F6000 X14.069 Y47.869
G0 X13.303 Y48.292
G0 X13.303 Y72.464
G0 X13.272 Y72.104
G1 F2700 E45.35011
G1 F1200 X12.968 Y71.799 E45.36444
G0 F6000 X12.968 Y71.233
G1 F1200 X13.838 Y72.104 E45.40538
G0 F6000 X14.404 Y72.104
G1 F1200 X12.967 Y70.667 E45.47297
G0 F6000 X12.967 Y70.101
G1 F1200 X14.969 Y72.104 E45.56717
G0 F6000 X15.535 Y72.104
G1 F1200 X12.966 Y69.535 E45.688
G0 F6000 X12.966 Y68.969
G1 F1200 X16.101 Y72.104 E45.83546
G0 F6000 X16.667 Y72.104
G1 F1200 X12.966 Y68.403 E46.00955
G0 F6000 X12.966 Y67.837
G1 F1200 X17.232 Y72.104 E46.21023
G0 F6000 X17.798 Y72.104
G1 F1200 X12.966 Y67.271 E46.43754
G0 F6000 X12.965 Y66.705
G1 F1200 X18.364 Y72.104 E46.69149
G0 F6000 X18.929 Y72.104
G1 F1200 X12.965 Y66.139 E46.97204
G0 F6000 X12.964 Y65.573
G1 F1200 X19.495 Y72.104 E47.27924
G0 F6000 X20.061 Y72.104
G1 F1200 X12.964 Y65.007 E47.61306
G0 F6000 X12.963 Y64.441
G1 F1200 X20.626 Y72.104 E47.97351
G0 F6000 X21.192 Y72.104
G1 F1200 X12.963 Y63.875 E48.36057
G0 F6000 X12.963 Y63.309
G1 F1200 X21.758 Y72.104 E48.77426
G0 F6000 X22.323 Y72.104
G1 F1200 X12.963 Y62.743 E49.21455
G0 F6000 X12.934 Y62.149
G1 F1200 X22.889 Y72.104 E49.6828
G0 F6000 X23.455 Y72.104
G1 F1200 X6.568 Y55.217 E50.47712
G0 F6000 X6.568 Y55.782
G1 F1200 X11.67 Y60.885 E50.71712
G0 F6000 X11.081 Y60.861
G1 F1200 X6.568 Y56.348 E50.9294
G0 F6000 X6.568 Y56.914
G1 F1200 X10.515 Y60.861 E51.11506
G0 F6000 X9.95 Y60.861
G1 F1200 X6.568 Y57.479 E51.27413
G0 F6000 X6.568 Y58.045
G1 F1200 X9.383 Y60.861 E51.40657
G0 F6000 X8.818 Y60.861
G1 F1200 X6.568 Y58.611 E51.5124
G0 F6000 X6.568 Y59.176
G1 F1200 X8.252 Y60.861 E51.59163
G0 F6000 X7.686 Y60.86
G1 F1200 X6.568 Y59.742 E51.64422
G0 F6000 X6.568 Y60.308
G1 F1200 X7.12 Y60.86 E51.67018
G0 F6000 X7.12 Y61.32
G0 X6.18 Y61.248
G0 X6.108 Y54.651
G0 X6.568 Y54.651
G1 F1200 X24.02 Y72.104 E52.4911
G0 F6000 X24.586 Y72.104
G1 F1200 X6.568 Y54.085 E53.33863
G0 F6000 X6.568 Y53.519
G1 F1200 X25.152 Y72.104 E54.21279
G0 F6000 X25.717 Y72.104
G1 F1200 X6.568 Y52.954 E55.11352
G0 F6000 X6.568 Y52.388
G1 F1200 X26.283 Y72.104 E56.04088
G0 F6000 X26.849 Y72.104
G1 F1200 X6.568 Y51.822 E56.99486
G0 F6000 X6.568 Y51.257
G1 F1200 X27.415 Y72.104 E57.97544
G0 F6000 X27.98 Y72.104
G1 F1200 X6.568 Y50.691 E58.98262
G0 F6000 X6.568 Y50.125
G1 F1200 X28.546 Y72.104 E60.01642
G0 F6000 X29.112 Y72.104
G1 F1200 X6.568 Y49.56 E61.07682
G0 F6000 X6.568 Y48.994
G1 F1200 X29.677 Y72.104 E62.16382
G0 F6000 X30.243 Y72.104
G1 F1200 X6.568 Y48.428 E63.27744
G0 F6000 X6.568 Y47.863
G1 F1200 X30.809 Y72.104 E64.41766
G0 F6000 X31.374 Y72.104
G1 F1200 X6.568 Y47.297 E65.58449
G0 F6000 X6.568 Y46.731
G1 F1200 X31.94 Y72.104 E66.77793
G0 F6000 X32.506 Y72.104
G1 F1200 X6.568 Y46.166 E67.99797
G0 F6000 X6.568 Y45.6
G1 F1200 X33.071 Y72.104 E69.24462
G0 F6000 X33.637 Y72.104
G1 F1200 X6.568 Y45.034 E70.51788
G0 F6000 X6.568 Y44.469
G1 F1200 X8.393 Y46.294 E70.60373
G0 F6000 X8.132 Y45.468
G1 F1200 X6.568 Y43.903 E70.67732
G0 F6000 X6.568 Y43.337
G1 F1200 X8.055 Y44.824 E70.74726
G0 F6000 X8.082 Y44.286
G1 F1200 X6.568 Y42.771 E70.8185
G0 F6000 X6.568 Y42.206
G1 F1200 X8.152 Y43.79 E70.893
G0 F6000 X8.278 Y43.351
G1 F1200 X6.568 Y41.64 E70.97346
G0 F6000 X6.568 Y41.074
G1 F1200 X8.431 Y42.938 E71.06111
G0 F6000 X8.627 Y42.568
G1 F1200 X6.568 Y40.509 E71.15796
G0 F6000 X6.568 Y39.943
G1 F1200 X8.852 Y42.227 E71.2654
G0 F6000 X9.101 Y41.911
G1 F1200 X6.568 Y39.377 E71.38456
G0 F6000 X6.568 Y38.812
G1 F1200 X9.385 Y41.629 E71.51707
G0 F6000 X9.687 Y41.365
G1 F1200 X6.568 Y38.246 E71.66377
G0 F6000 X6.568 Y37.68
G1 F1200 X10.025 Y41.137 E71.82638
G0 F6000 X10.385 Y40.932
G1 F1200 X6.568 Y37.115 E72.00592
G0 F6000 X6.568 Y36.549
G1 F1200 X10.78 Y40.761 E72.20404
G0 F6000 X11.215 Y40.63
G1 F1200 X6.568 Y35.983 E72.42262
G0 F6000 X6.568 Y35.418
G1 F1200 X11.693 Y40.543 E72.66369
G0 F6000 X12.232 Y40.517
G1 F1200 X6.568 Y34.852 E72.93013
G0 F6000 X6.568 Y34.286
G1 F1200 X12.851 Y40.57 E73.22568
G0 F6000 X13.605 Y40.758
G1 F1200 X6.568 Y33.721 E73.55668
G0 F6000 X6.568 Y33.155
G1 F1200 X14.96 Y41.547 E73.95142
G0 F6000 X15.19 Y41.777
G1 F1200 X45.516 Y72.104 E75.37788
G0 F6000 X44.951 Y72.104
G1 F1200 X16.139 Y43.292 E76.73311
G0 F6000 X16.315 Y44.034
G1 F1200 X44.385 Y72.104 E78.05344
G0 F6000 X43.819 Y72.104
G1 F1200 X16.344 Y44.628 E79.3458
G0 F6000 X16.341 Y45.19
G1 F1200 X43.254 Y72.104 E80.61173
G0 F6000 X42.688 Y72.104
G1 F1200 X16.232 Y45.647 E81.85616
