;FLAVOR:Marlin
;TIME:3725
;Filament used: 3.15938m
;Layer height: 0.2
;MINX:9.236
;MINY:17.208
;MINZ:0.2
;MAXX:68.836
;MAXY:78.808
;MAXZ:3
;TARGET_MACHINE.NAME:Creality Ender-3
;Generated with Cura_SteamEngine 5.7.0
M140 S50
M105
M190 S50
M104 S200
M105
M109 S200
M82 ;absolute extrusion mode
; Ender 3 Custom Start G-code
G92 E0 ; Reset Extruder
G28 ; Home all axes
G1 Z2.0 F3000 ; Move Z Axis up little to prevent scratching of Heat Bed
G1 X0.1 Y20 Z0.3 F5000.0 ; Move to start position
G1 X0.1 Y200.0 Z0.3 F1500.0 E15 ; Draw the first line
G1 X0.4 Y200.0 Z0.3 F5000.0 ; Move to side a little
G1 X0.4 Y20 Z0.3 F1500.0 E30 ; Draw the second line
G92 E0 ; Reset Extruder
G1 Z2.0 F3000 ; Move Z Axis up little to prevent scratching of Heat Bed
G1 X5 Y20 Z0.3 F5000.0 ; Move over to prevent blob squish
G92 E0
G92 E0
G1 F2700 E-5
;LAYER_COUNT:15
;LAYER:0
M107
;MESH:RaspPiAnschluss.stl
G0 F6000 X13.968 Y25.444 Z0.2
;TYPE:WALL-INNER
G1 F2700 E0
G1 F1200 X13.37 Y25.588 E0.02046
G1 X12.836 Y25.596 E0.03822
G1 X12.579 Y25.563 E0.04684
G1 X12.07 Y25.428 E0.06435
G1 X11.62 Y25.182 E0.08141
G1 X11.417 Y25.036 E0.08973
G1 X11.122 Y24.76 E0.10316
G1 X10.959 Y24.565 E0.11162
G1 X10.744 Y24.225 E0.125
G1 X10.636 Y23.996 E0.13342
G1 F1167.9 X10.467 Y23.479 E0.15201
G1 F1142.9 X10.434 Y22.803 E0.17564
G1 F1165 X10.562 Y22.192 E0.19703
G1 F1191.1 X10.836 Y21.61 E0.21858
G1 F1200 X11.166 Y21.206 E0.23593
G1 X11.351 Y21.031 E0.2444
G1 X11.675 Y20.795 E0.25774
G1 X11.897 Y20.673 E0.26616
G1 X12.384 Y20.481 E0.28357
G1 X13.001 Y20.404 E0.30425
G1 X13.553 Y20.463 E0.32272
G1 X13.799 Y20.525 E0.33116
G1 X14.175 Y20.673 E0.3446
G1 X14.397 Y20.795 E0.35302
G1 X14.82 Y21.103 E0.37042
G1 X15.158 Y21.508 E0.38797
G1 X15.297 Y21.728 E0.39662
G1 X15.518 Y22.21 E0.41426
G1 X15.637 Y22.839 E0.43555
G1 X15.591 Y23.52 E0.45825
G1 X15.395 Y24.121 E0.47928
G1 X15.047 Y24.67 E0.5009
G1 X14.563 Y25.125 E0.52299
G1 X13.968 Y25.444 E0.54545
G0 F6000 X13.836 Y25.064
G1 F1200 X13.316 Y25.191 E0.56325
G1 X12.761 Y25.197 E0.58171
G1 X12.222 Y25.055 E0.60025
G1 X11.745 Y24.794 E0.61834
G1 X11.337 Y24.413 E0.6369
G1 X11.037 Y23.941 E0.6555
G1 X10.872 Y23.408 E0.67406
G1 X10.837 Y22.86 E0.69233
G1 X10.942 Y22.326 E0.71043
G1 X11.177 Y21.823 E0.72889
G1 X11.524 Y21.399 E0.74712
G1 X11.971 Y21.074 E0.7655
G1 X12.487 Y20.871 E0.78394
G1 X13.036 Y20.808 E0.80232
G1 X13.579 Y20.868 E0.82049
G1 X14.101 Y21.074 E0.83915
G1 X14.545 Y21.397 E0.85742
G1 X14.9 Y21.824 E0.87588
G1 X15.133 Y22.329 E0.89438
G1 X15.235 Y22.862 E0.91243
G1 X15.198 Y23.421 E0.93107
G1 X15.027 Y23.945 E0.9494
G1 X14.73 Y24.412 E0.96781
G1 X14.337 Y24.792 E0.98599
G1 X13.836 Y25.064 E1.00495
G1 F2700 E-3.99505
G0 F6000 X13.909 Y25.352
G0 X14.687 Y25.285
G0 X22.856 Y25.285
G0 X23.21 Y39.436
G0 X38.881 Y39.508
G0 X38.881 Y39.504
G1 F2700 E1.00495
G1 F1200 X38.567 Y39.608 E1.01595
G1 X24.036 Y39.608 E1.49925
G1 X23.663 Y39.536 E1.51189
G1 X23.358 Y39.366 E1.5235
G1 X23.132 Y39.038 E1.53675
G1 X23.036 Y38.75 E1.54685
G1 X23.036 Y21.676 E2.11473
G1 X23.115 Y21.417 E2.12374
G1 X23.239 Y21.203 E2.13196
G1 X23.439 Y21.005 E2.14132
G1 X23.714 Y20.861 E2.15165
G1 X23.916 Y20.808 E2.15859
G1 X38.436 Y20.808 E2.64153
G1 X38.761 Y20.861 E2.65248
G1 X39.036 Y21.007 E2.66284
G1 X39.236 Y21.208 E2.67227
G1 X39.359 Y21.423 E2.68051
G1 X39.436 Y21.681 E2.68946
G1 X39.435 Y38.673 E3.25462
G1 X39.378 Y38.947 E3.26393
G1 X39.205 Y39.248 E3.27548
G1 X38.881 Y39.504 E3.28921
G0 F6000 X38.898 Y38.992
G1 F1200 X38.703 Y39.146 E3.29747
G1 X38.516 Y39.208 E3.30403
G1 X24.036 Y39.208 E3.78563
G1 X23.812 Y39.165 E3.79322
G1 X23.676 Y39.089 E3.7984
G1 X23.532 Y38.935 E3.80541
G1 X23.436 Y38.701 E3.81383
G1 X23.436 Y21.728 E4.37835
G1 X23.558 Y21.445 E4.3886
G1 X23.677 Y21.326 E4.3942
G1 X23.963 Y21.208 E4.40449
G1 X38.436 Y21.208 E4.88586
G1 X38.631 Y21.24 E4.89243
G1 X38.796 Y21.327 E4.89864
G1 X38.916 Y21.448 E4.90431
G1 X39.036 Y21.729 E4.91447
G1 X39.035 Y38.647 E5.47716
G1 X39.001 Y38.812 E5.48277
G1 X38.898 Y38.992 E5.48967
G1 F2700 E0.48967
G0 F6000 X39.338 Y38.992
G0 X38.96 Y39.666
G0 X38.96 Y41.408
G0 X41.866 Y41.38
G0 X42.3 Y57.083
G0 X42.145 Y57.115
G1 F2700 E5.48967
G1 F1200 X41.885 Y57.302 E5.50032
G1 X41.436 Y57.408 E5.51566
G1 X24.549 Y57.405 E6.07733
G1 X24.201 Y57.309 E6.08933
G1 X23.941 Y57.128 E6.09987
G1 X23.813 Y56.977 E6.10645
G1 X23.69 Y56.735 E6.11548
G1 X23.641 Y56.511 E6.12311
G1 X23.638 Y41.735 E6.61456
G1 X23.729 Y41.348 E6.62778
G1 X23.952 Y41.077 E6.63946
G1 X24.273 Y40.875 E6.65207
G1 X24.513 Y40.808 E6.66036
G1 X41.501 Y40.81 E7.22538
G1 X41.73 Y40.851 E7.23312
G1 X42.011 Y40.989 E7.24353
G1 X42.16 Y41.117 E7.25006
G1 X42.321 Y41.341 E7.25924
G1 X42.433 Y41.721 E7.27242
G1 X42.434 Y56.476 E7.76317
G1 X42.331 Y56.855 E7.77623
G1 X42.145 Y57.115 E7.78686
G0 F6000 X41.861 Y56.832
G1 F1200 X41.706 Y56.945 E7.79324
G1 X41.436 Y57.008 E7.80247
G1 X24.584 Y57.006 E8.36297
G1 X24.375 Y56.949 E8.37017
G1 X24.219 Y56.84 E8.3765
G1 X24.103 Y56.685 E8.38294
G1 X24.039 Y56.47 E8.3904
G1 X24.037 Y41.764 E8.87952
G1 X24.127 Y41.49 E8.88912
G1 X24.225 Y41.369 E8.8943
G1 X24.561 Y41.208 E8.90669
G1 X41.475 Y41.209 E9.46925
G1 X41.781 Y41.316 E9.48003
G1 X41.948 Y41.493 E9.48813
G1 X42.036 Y41.779 E9.49808
G1 X42.035 Y56.537 E9.98893
G1 X41.861 Y56.832 E10.00032
G1 F2700 E5.00032
G0 F6000 X41.861 Y57.308
G0 X41.434 Y57.589
G0 X41.434 Y59.208
G0 X41.866 Y59.18
G0 X42.036 Y75.308
G0 X42.036 Y75.209
G1 F2700 E10.00032
G1 F1200 X41.76 Y75.354 E10.01069
G1 X41.436 Y75.408 E10.02162
G1 X24.636 Y75.408 E10.58039
G1 X24.311 Y75.354 E10.59134
G1 X24.035 Y75.209 E10.60171
G1 X23.836 Y75.008 E10.61112
G1 X23.713 Y74.793 E10.61936
G1 X23.636 Y74.535 E10.62832
G1 X23.641 Y59.505 E11.12822
G1 X23.748 Y59.147 E11.14064
G1 X23.941 Y58.888 E11.15139
G1 X24.201 Y58.707 E11.16192
G1 X24.549 Y58.611 E11.17393
G1 X41.436 Y58.608 E11.73559
G1 X41.885 Y58.714 E11.75094
G1 X42.145 Y58.901 E11.76159
G1 X42.269 Y59.054 E11.76814
G1 X42.407 Y59.366 E11.77949
G1 X42.436 Y59.57 E11.78634
G1 X42.436 Y74.535 E12.28408
G1 X42.359 Y74.794 E12.29307
G1 X42.236 Y75.008 E12.30127
G1 X42.036 Y75.209 E12.31071
G0 F6000 X41.796 Y74.889
G1 F1200 X41.631 Y74.976 E12.31691
G1 X41.436 Y75.008 E12.32348
G1 X24.636 Y75.008 E12.88225
G1 X24.441 Y74.976 E12.88883
G1 X24.275 Y74.889 E12.89506
G1 X24.156 Y74.768 E12.9007
G1 X24.036 Y74.487 E12.91087
G1 X24.039 Y59.546 E13.40781
G1 X24.142 Y59.266 E13.41773
G1 X24.375 Y59.067 E13.42792
G1 X24.584 Y59.01 E13.43513
G1 X41.436 Y59.008 E13.99562
G1 X41.706 Y59.071 E14.00485
G1 X41.861 Y59.184 E14.01123
G1 X41.994 Y59.385 E14.01924
G1 X42.031 Y59.523 E14.02399
G1 X42.036 Y74.487 E14.5217
G1 X41.916 Y74.768 E14.53186
G1 X41.796 Y74.889 E14.53753
G1 F2700 E9.53753
G0 F6000 X41.796 Y75.308
G0 X42.381 Y75.116
G0 X42.381 Y77.808
G0 X57.449 Y78.008
G1 F2700 E14.53753
G1 F1200 X68.036 Y67.421 E15.03551
G1 X68.036 Y28.595 E16.32687
G1 X57.449 Y18.008 E16.82485
G1 X10.036 Y18.008 E18.40181
G1 F1197 X10.037 Y22.908 E18.56519
G1 F1165 X10.047 Y23.515 E18.58599
G1 F1167.9 X10.037 Y24.09 E18.60564
G1 F1197 X10.037 Y72.908 E20.2334
G1 F1165 X10.047 Y73.515 E20.25419
G1 F1167.9 X10.037 Y74.09 E20.27385
G1 F1200 X10.036 Y78.008 E20.40416
G1 X57.449 Y78.008 E21.98112
G0 F6000 X57.615 Y78.408
G1 F1200 X68.436 Y67.587 E22.49011
G1 X68.436 Y28.429 E23.79251
G1 X57.615 Y17.608 E24.3015
G1 X9.636 Y17.608 E25.89728
G1 X9.636 Y78.408 E27.9195
G1 X57.615 Y78.408 E29.51529
G1 F2700 E24.51529
G0 F6000 X57.497 Y78.116
G0 X61.786 Y73.389
G0 X60.722 Y71.505
G0 X60.037 Y71.639
G1 F2700 E29.51529
G1 F1200 X59.532 Y71.764 E29.53259
G1 X58.884 Y71.764 E29.55414
G1 X58.379 Y71.639 E29.57145
G1 X58.133 Y71.542 E29.58024
G1 X57.676 Y71.287 E29.59765
G1 X57.193 Y70.839 E29.61956
G1 X56.852 Y70.281 E29.64131
G1 X56.644 Y69.666 E29.6629
G1 X56.61 Y69.009 E29.68479
G1 X56.735 Y68.381 E29.70608
G1 X57.006 Y67.781 E29.72798
G1 X57.425 Y67.284 E29.7496
G1 X57.938 Y66.9 E29.77091
G1 X58.559 Y66.653 E29.79314
G1 X59.207 Y66.576 E29.81485
G1 X59.883 Y66.661 E29.83751
G1 X60.497 Y66.913 E29.85958
G1 X61.019 Y67.304 E29.88127
G1 X61.39 Y67.758 E29.90077
G1 X61.686 Y68.371 E29.92342
G1 X61.786 Y68.889 E29.94096
G1 X61.803 Y69.141 E29.94936
G1 X61.779 Y69.537 E29.96256
G1 X61.732 Y69.784 E29.97092
G1 X61.609 Y70.168 E29.98433
G1 X61.5 Y70.397 E29.99277
G1 X61.214 Y70.845 E30.01045
G1 X60.742 Y71.287 E30.03195
G1 X60.283 Y71.542 E30.04942
G1 X60.037 Y71.639 E30.05821
G0 F6000 X60.018 Y71.232
G1 F1200 X59.484 Y71.364 E30.07651
G1 X58.932 Y71.364 E30.09487
G1 X58.398 Y71.232 E30.11316
G1 X57.911 Y70.96 E30.13172
G1 X57.513 Y70.582 E30.14997
G1 X57.215 Y70.113 E30.16845
G1 X57.044 Y69.578 E30.18713
G1 X57.01 Y69.026 E30.20553
G1 X57.116 Y68.504 E30.22324
G1 X57.346 Y67.996 E30.24179
G1 X57.705 Y67.569 E30.26035
G1 X58.155 Y67.241 E30.27887
G1 X58.658 Y67.044 E30.29683
G1 X59.216 Y66.976 E30.31553
G1 X59.748 Y67.045 E30.33337
G1 X60.267 Y67.248 E30.35191
G1 X60.719 Y67.569 E30.37035
G1 X61.069 Y68.008 E30.38902
G1 X61.302 Y68.497 E30.40704
G1 X61.408 Y69.035 E30.42528
G1 X61.376 Y69.583 E30.44353
G1 X61.206 Y70.115 E30.46211
G1 X60.905 Y70.588 E30.48076
G1 X60.504 Y70.961 E30.49897
G1 X60.018 Y71.232 E30.51748
G1 F2700 E25.51748
G0 F6000 X60.091 Y71.522
G0 X60.647 Y71.158
G0 X61.093 Y70.739
G0 X61.423 Y70.221
G0 X61.612 Y69.638
G0 X61.65 Y69.027
G0 X61.536 Y68.425
G0 X61.274 Y67.87
G0 X61.053 Y67.602
G0 X59.892 Y66.472
G0 X59.555 Y29.602
G0 X59.537 Y29.421
G1 F2700 E30.51748
G1 F1200 X58.876 Y29.422 E30.53946
G1 X58.218 Y29.248 E30.5621
G1 X57.675 Y28.946 E30.58277
G1 X57.186 Y28.481 E30.60521
G1 X56.842 Y27.93 E30.62682
G1 X56.653 Y27.343 E30.64733
G1 X56.605 Y26.69 E30.6691
G1 X56.734 Y26.041 E30.69111
G1 X57 Y25.444 E30.71285
G1 X57.419 Y24.935 E30.73478
G1 X57.956 Y24.545 E30.75685
G1 X58.445 Y24.353 E30.77433
G1 X58.691 Y24.291 E30.78276
G1 X59.208 Y24.228 E30.80009
G1 X59.725 Y24.291 E30.81741
G1 X59.971 Y24.353 E30.82585
G1 X60.464 Y24.547 E30.84347
G1 X60.978 Y24.92 E30.86459
G1 X61.406 Y25.436 E30.88689
G1 X61.631 Y25.908 E30.90428
G1 X61.711 Y26.151 E30.91279
G1 X61.787 Y26.547 E30.9262
G1 X61.803 Y26.797 E30.93453
G1 X61.779 Y27.193 E30.94773
G1 X61.732 Y27.44 E30.95609
G1 X61.608 Y27.824 E30.96951
G1 X61.501 Y28.053 E30.97792
G1 X61.237 Y28.469 E30.9943
G1 X60.739 Y28.952 E31.01738
G1 X60.165 Y29.252 E31.03892
G1 X59.537 Y29.421 E31.06055
G0 F6000 X59.482 Y29.023
G1 F1200 X58.922 Y29.023 E31.07918
G1 X58.376 Y28.875 E31.09799
G1 X57.913 Y28.621 E31.11556
G1 X57.514 Y28.246 E31.13377
G1 X57.206 Y27.749 E31.15322
G1 X57.041 Y27.238 E31.17108
G1 X57.01 Y26.685 E31.1895
G1 X57.112 Y26.158 E31.20735
G1 X57.346 Y25.663 E31.22556
G1 X57.698 Y25.233 E31.24404
G1 X58.147 Y24.9 E31.26264
G1 X58.662 Y24.697 E31.28105
G1 X59.208 Y24.631 E31.29934
G1 X59.753 Y24.697 E31.3176
G1 X60.277 Y24.903 E31.33633
G1 X60.729 Y25.243 E31.35514
G1 X61.067 Y25.655 E31.37286
G1 X61.304 Y26.152 E31.39118
G1 X61.408 Y26.693 E31.4095
G1 X61.376 Y27.244 E31.42786
G1 X61.204 Y27.775 E31.44642
G1 X60.902 Y28.24 E31.46486
G1 X60.506 Y28.622 E31.48316
G1 X60.019 Y28.879 E31.50148
G1 X59.482 Y29.023 E31.51997
G1 F2700 E26.51997
G0 F6000 X59.482 Y29.324
G0 X58.175 Y29.43
G0 X15.714 Y72.177
G0 X14.46 Y75.18
G1 F2700 E31.51997
G1 F1200 X14.112 Y75.372 E31.53319
G1 X13.876 Y75.466 E31.54164
G1 X13.353 Y75.596 E31.55956
G1 X12.836 Y75.596 E31.57676
G1 X12.579 Y75.563 E31.58538
G1 X12.077 Y75.43 E31.60265
G1 X11.62 Y75.182 E31.61994
G1 X11.417 Y75.036 E31.62826
G1 X11.122 Y74.76 E31.6417
G1 X10.959 Y74.565 E31.65015
G1 X10.744 Y74.225 E31.66353
G1 X10.636 Y73.996 E31.67195
G1 F1167.9 X10.467 Y73.479 E31.69054
G1 F1142.9 X10.434 Y72.803 E31.71417
G1 F1165 X10.562 Y72.192 E31.73556
G1 F1191.1 X10.836 Y71.61 E31.75712
G1 F1200 X11.166 Y71.206 E31.77447
G1 X11.351 Y71.031 E31.78294
G1 X11.675 Y70.795 E31.79627
G1 X11.897 Y70.673 E31.80469
G1 X12.273 Y70.525 E31.81813
G1 X12.519 Y70.463 E31.82657
G1 X13.036 Y70.4 E31.84389
G1 X13.651 Y70.475 E31.8645
G1 X14.263 Y70.707 E31.88627
G1 X14.789 Y71.079 E31.9077
G1 X15.158 Y71.508 E31.92652
G1 X15.297 Y71.728 E31.93517
G1 X15.501 Y72.17 E31.95136
G1 X15.639 Y72.837 E31.97402
G1 X15.596 Y73.507 E31.99635
G1 X15.395 Y74.121 E32.01784
G1 X15.048 Y74.667 E32.03935
G1 X14.663 Y75.031 E32.05698
G1 X14.46 Y75.18 E32.06535
G0 F6000 X14.336 Y74.792
G1 F1200 X13.849 Y75.06 E32.08384
G1 X13.308 Y75.196 E32.10239
G1 X12.758 Y75.196 E32.12069
G1 X12.225 Y75.056 E32.13902
G1 X11.745 Y74.795 E32.15719
G1 X11.337 Y74.412 E32.1758
G1 X11.037 Y73.941 E32.19437
G1 X10.872 Y73.408 E32.21293
G1 X10.837 Y72.86 E32.2312
G1 X10.942 Y72.326 E32.2493
G1 X11.177 Y71.823 E32.26776
G1 X11.524 Y71.399 E32.28598
G1 X11.971 Y71.074 E32.30437
G1 X12.49 Y70.869 E32.32293
G1 X13.039 Y70.803 E32.34132
G1 X13.586 Y70.875 E32.35967
G1 X14.102 Y71.08 E32.37813
G1 X14.542 Y71.4 E32.39623
G1 X14.895 Y71.826 E32.41463
G1 X15.128 Y72.327 E32.43301
G1 X15.237 Y72.868 E32.45136
G1 X15.2 Y73.43 E32.4701
G1 X15.032 Y73.946 E32.48815
G1 X14.733 Y74.415 E32.50664
G1 X14.336 Y74.792 E32.52485
G0 F6000 X14.073 Y74.48
;TYPE:WALL-OUTER
G1 F1200 X13.725 Y74.672 E32.53807
G1 X13.271 Y74.794 E32.55371
G1 X12.784 Y74.79 E32.56991
G1 X12.357 Y74.673 E32.58463
G1 X11.963 Y74.451 E32.59967
G1 X11.635 Y74.136 E32.6148
G1 X11.397 Y73.75 E32.62988
G1 X11.266 Y73.339 E32.64423
G1 X11.243 Y72.869 E32.65988
G1 X11.334 Y72.431 E32.67476
G1 X11.533 Y72.021 E32.68992
G1 X11.822 Y71.678 E32.70484
G1 X12.19 Y71.417 E32.71984
G1 X12.566 Y71.269 E32.73328
G1 X13.011 Y71.209 E32.74822
G1 X13.484 Y71.262 E32.76405
G1 X13.906 Y71.429 E32.77914
G1 X14.269 Y71.693 E32.79407
G1 X14.557 Y72.04 E32.80907
G1 X14.747 Y72.45 E32.8241
G1 X14.83 Y72.873 E32.83844
G1 X14.807 Y73.335 E32.85382
G1 X14.675 Y73.751 E32.86834
G1 X14.406 Y74.174 E32.88501
G1 X14.073 Y74.48 E32.90005
G1 F2700 E27.90005
G0 F6000 X14.41 Y75.092
G0 X15.497 Y74.332
G0 X23.456 Y74.337
G0 X23.81 Y75.236
G0 X42.266 Y75.236
G0 X42.338 Y74.528
G0 X41.596 Y74.528
G1 F2700 E32.90005
G1 F1200 X41.482 Y74.608 E32.90468
G1 X24.59 Y74.608 E33.46651
G1 X24.476 Y74.528 E33.47115
G1 X24.439 Y74.445 E33.47417
G1 X24.437 Y59.556 E33.96938
G1 X24.497 Y59.464 E33.97303
G1 X24.618 Y59.408 E33.97747
G1 X41.507 Y59.408 E34.5392
G1 X41.637 Y59.549 E34.54558
G1 X41.633 Y74.445 E35.04102
G1 X41.596 Y74.528 E35.04404
G1 F2700 E30.04404
G0 F6000 X42.338 Y74.528
G0 X42.617 Y74.559
G0 X42.617 Y77.808
G0 X57.497 Y78.116
G0 X57.781 Y78.808
G1 F2700 E35.04404
G1 F1200 X68.836 Y67.753 E35.56403
G1 X68.836 Y28.263 E36.87748
G1 X57.781 Y17.208 E37.39747
G1 X9.236 Y17.208 E39.01208
G1 X9.236 Y78.808 E41.06091
G1 X57.781 Y78.808 E42.67552
G1 F2700 E37.67552
G0 F6000 X57.497 Y78.116
G0 X61.841 Y73.334
G0 X60.722 Y71.505
G0 X60.041 Y71.534
G0 X59.87 Y70.857
G1 F2700 E42.67552
G1 F1200 X59.457 Y70.959 E42.68967
G1 X58.959 Y70.959 E42.70623
G1 X58.546 Y70.857 E42.72038
G1 X58.131 Y70.619 E42.7363
G1 X57.821 Y70.328 E42.75044
G1 X57.578 Y69.945 E42.76552
G1 X57.438 Y69.51 E42.78072
G1 X57.412 Y69.075 E42.79522
G1 X57.497 Y68.626 E42.81042
G1 X57.682 Y68.22 E42.82525
G1 X57.969 Y67.875 E42.84018
G1 X58.334 Y67.603 E42.85532
G1 X58.749 Y67.437 E42.87019
G1 X59.198 Y67.38 E42.88524
G1 X59.652 Y67.433 E42.90044
G1 X60.054 Y67.589 E42.91479
G1 X60.441 Y67.866 E42.93061
G1 X60.738 Y68.235 E42.94637
G1 X60.925 Y68.649 E42.96148
G1 X61.001 Y69.041 E42.97476
G1 X60.98 Y69.489 E42.98968
G1 X60.847 Y69.922 E43.00474
G1 X60.604 Y70.315 E43.02011
G1 X60.285 Y70.619 E43.03477
G1 X59.87 Y70.857 E43.05068
G1 F2700 E38.05068
G0 F6000 X60.041 Y71.534
G0 X58.905 Y71.606
G0 X58.309 Y71.455
G0 X57.771 Y71.158
G0 X57.326 Y70.739
G0 X56.996 Y70.221
G0 X56.807 Y69.638
G0 X56.785 Y69.292
G0 X56.855 Y67.68
G0 X39.299 Y57.568
G0 X41.578 Y57.308
G0 X41.578 Y56.55
G1 F2700 E43.05068
G1 F1200 X41.436 Y56.608 E43.05578
G1 X24.571 Y56.608 E43.61671
G1 X24.471 Y56.522 E43.6211
G1 X24.437 Y56.429 E43.62439
G1 X24.436 Y41.767 E44.11205
G1 X24.499 Y41.661 E44.11615
G1 X24.601 Y41.61 E44.11995
G1 X41.479 Y41.608 E44.68131
G1 X41.63 Y41.755 E44.68832
G1 X41.631 Y56.457 E45.17731
G1 X41.578 Y56.55 E45.18087
G1 F2700 E40.18087
